(G-CODE GENERATED BY FLATCAM v8.994 - www.flatcam.org - Version Date: 2020/11/7)

(Name: Mask_mt_paint_cnc)
(Type: G-code from Geometry)
(Units: MM)

(Created on Thursday, 17 July 2025 at 17:31)

(This preprocessor is used with a motion controller loaded with GRBL firmware. )
(It is for the case when it is used together with a LASER connected on the SPINDLE connector.)

(Feedrate: 120.0 mm/min)
(Feedrate rapids: 1500.0 mm/min)

(Z Focus: 2.0 mm)
(Steps per circle: 64)
(Preprocessor Geometry: GRBL_laser)

(X range:   32.3216 ...   82.1965  mm)
(Y range:   27.9800 ...   62.2399  mm)

(Laser Power - Spindle Speed: 5000.0)

G21
G90
G17
G94

G01 F120.00

M5
G01 F120.00
G00 X34.0736 Y28.0062
G01 F60.00
M03 S5000.0
G01 F120.00
G01 X34.6094 Y28.0062 F120.00
G01 X34.7621 Y28.0464 F120.00
G01 X33.9209 Y28.0464 F120.00
G01 X33.8098 Y28.0866 F120.00
G01 X34.8732 Y28.0866 F120.00
G01 X34.9582 Y28.1268 F120.00
G01 X33.7248 Y28.1268 F120.00
G01 X33.6506 Y28.1670 F120.00
G01 X35.0324 Y28.1670 F120.00
G01 X35.0995 Y28.2072 F120.00
G01 X33.5835 Y28.2072 F120.00
G01 X33.5276 Y28.2474 F120.00
G01 X35.1554 Y28.2474 F120.00
G01 X35.2096 Y28.2876 F120.00
G01 X33.4734 Y28.2876 F120.00
G01 X33.4277 Y28.3278 F120.00
G01 X35.2553 Y28.3278 F120.00
G01 X35.2996 Y28.3680 F120.00
G01 X33.3834 Y28.3680 F120.00
G01 X33.3438 Y28.4082 F120.00
G01 X35.3392 Y28.4082 F120.00
G01 X35.3757 Y28.4484 F120.00
G01 X33.3073 Y28.4484 F120.00
G01 X33.2716 Y28.4886 F120.00
G01 X35.4114 Y28.4886 F120.00
G01 X35.4412 Y28.5288 F120.00
G01 X33.2418 Y28.5288 F120.00
G01 X33.2120 Y28.5690 F120.00
G01 X35.4710 Y28.5690 F120.00
G01 X35.4986 Y28.6092 F120.00
G01 X33.1844 Y28.6092 F120.00
G01 X33.1603 Y28.6494 F120.00
G01 X35.5227 Y28.6494 F120.00
G01 X35.5468 Y28.6896 F120.00
G01 X33.1362 Y28.6896 F120.00
G01 X33.1147 Y28.7298 F120.00
G01 X35.5683 Y28.7298 F120.00
G01 X35.5873 Y28.7700 F120.00
G01 X33.0957 Y28.7700 F120.00
G01 X33.0767 Y28.8102 F120.00
G01 X35.6063 Y28.8102 F120.00
G01 X35.6232 Y28.8504 F120.00
G01 X33.0598 Y28.8504 F120.00
G01 X33.0455 Y28.8906 F120.00
G01 X35.6375 Y28.8906 F120.00
G01 X35.6519 Y28.9308 F120.00
G01 X33.0311 Y28.9308 F120.00
G01 X33.0179 Y28.9710 F120.00
G01 X35.6650 Y28.9710 F120.00
G01 X35.6751 Y29.0112 F120.00
G01 X33.0079 Y29.0112 F120.00
G01 X32.9978 Y29.0514 F120.00
G01 X35.6852 Y29.0514 F120.00
G01 X35.6951 Y29.0916 F120.00
G01 X32.9879 Y29.0916 F120.00
G01 X32.9819 Y29.1318 F120.00
G01 X35.7011 Y29.1318 F120.00
G01 X35.7071 Y29.1720 F120.00
G01 X32.9759 Y29.1720 F120.00
G01 X32.9699 Y29.2122 F120.00
G01 X35.7130 Y29.2122 F120.00
G01 X35.7163 Y29.2524 F120.00
G01 X32.9667 Y29.2524 F120.00
G01 X32.9648 Y29.2926 F120.00
G01 X35.7182 Y29.2926 F120.00
G01 X35.7202 Y29.3328 F120.00
G01 X32.9628 Y29.3328 F120.00
G01 X32.9621 Y29.3730 F120.00
G01 X35.7209 Y29.3730 F120.00
G01 X35.7189 Y29.4132 F120.00
G01 X32.9641 Y29.4132 F120.00
G01 X32.9661 Y29.4534 F120.00
G01 X35.7169 Y29.4534 F120.00
G01 X35.7149 Y29.4936 F120.00
G01 X32.9681 Y29.4936 F120.00
G01 X32.9738 Y29.5338 F120.00
G01 X35.7092 Y29.5338 F120.00
G01 X35.7032 Y29.5740 F120.00
G01 X32.9798 Y29.5740 F120.00
G01 X32.9858 Y29.6142 F120.00
G01 X35.6972 Y29.6142 F120.00
G01 X35.6887 Y29.6544 F120.00
G01 X32.9943 Y29.6544 F120.00
G01 X33.0044 Y29.6946 F120.00
G01 X35.6786 Y29.6946 F120.00
G01 X35.6685 Y29.7348 F120.00
G01 X33.0145 Y29.7348 F120.00
G01 X33.0261 Y29.7750 F120.00
G01 X35.6569 Y29.7750 F120.00
G01 X35.6425 Y29.8152 F120.00
G01 X33.0405 Y29.8152 F120.00
G01 X33.0549 Y29.8554 F120.00
G01 X35.6281 Y29.8554 F120.00
G01 X35.6129 Y29.8956 F120.00
G01 X33.0701 Y29.8956 F120.00
G01 X33.0891 Y29.9358 F120.00
G01 X35.5939 Y29.9358 F120.00
G01 X35.5749 Y29.9760 F120.00
G01 X33.1081 Y29.9760 F120.00
G01 X33.1279 Y30.0162 F120.00
G01 X35.5551 Y30.0162 F120.00
G01 X35.5310 Y30.0564 F120.00
G01 X33.1520 Y30.0564 F120.00
G01 X33.1761 Y30.0966 F120.00
G01 X35.5069 Y30.0966 F120.00
G01 X35.4814 Y30.1368 F120.00
G01 X33.2016 Y30.1368 F120.00
G01 X33.2314 Y30.1770 F120.00
G01 X35.4516 Y30.1770 F120.00
G01 X35.4217 Y30.2172 F120.00
G01 X33.2612 Y30.2172 F120.00
M5
G00 X33.2947 Y30.2574
G01 F60.00
M03 S5000.0
G01 F120.00
G01 X35.3883 Y30.2574 F120.00
G01 X35.3519 Y30.2976 F120.00
G01 X33.3311 Y30.2976 F120.00
G01 X33.3680 Y30.3378 F120.00
G01 X35.3150 Y30.3378 F120.00
G01 X35.2707 Y30.3780 F120.00
G01 X33.4123 Y30.3780 F120.00
G01 X33.4567 Y30.4182 F120.00
G01 X35.2263 Y30.4182 F120.00
G01 X35.1742 Y30.4584 F120.00
G01 X33.5088 Y30.4584 F120.00
G01 X33.5630 Y30.4986 F120.00
G01 X35.1200 Y30.4986 F120.00
G01 X35.0557 Y30.5388 F120.00
G01 X33.6273 Y30.5388 F120.00
G01 X33.6953 Y30.5790 F120.00
G01 X34.9877 Y30.5790 F120.00
G01 X34.9027 Y30.6192 F120.00
G01 X33.7803 Y30.6192 F120.00
G01 X33.8820 Y30.6594 F120.00
G01 X34.8010 Y30.6594 F120.00
G01 X34.6658 Y30.6996 F120.00
G01 X34.0172 Y30.6996 F120.00
G01 X33.9388 Y30.6798 F120.00
G01 X33.9430 Y30.6811 F120.00
G01 X34.0701 Y30.7129 F120.00
G01 X34.2040 Y30.7330 F120.00
G01 X34.3437 Y30.7398 F120.00
G01 X34.4790 Y30.7330 F120.00
G01 X34.6129 Y30.7129 F120.00
G01 X34.7400 Y30.6811 F120.00
G01 X34.7442 Y30.6798 F120.00
G01 X34.8675 Y30.6357 F120.00
G01 X34.8716 Y30.6340 F120.00
G01 X34.9900 Y30.5780 F120.00
G01 X34.9939 Y30.5759 F120.00
G01 X35.1063 Y30.5085 F120.00
G01 X35.1100 Y30.5061 F120.00
G01 X35.2152 Y30.4280 F120.00
G01 X35.2186 Y30.4252 F120.00
G01 X35.3157 Y30.3372 F120.00
G01 X35.3188 Y30.3341 F120.00
G01 X35.4068 Y30.2370 F120.00
G01 X35.4901 Y30.1247 F120.00
G01 X35.5595 Y30.0085 F120.00
G01 X35.6172 Y29.8860 F120.00
G01 X35.6626 Y29.7584 F120.00
G01 X35.6953 Y29.6270 F120.00
G01 X35.7150 Y29.4930 F120.00
G01 X35.7215 Y29.3599 F120.00
G01 X35.7146 Y29.2225 F120.00
G01 X35.6945 Y29.0885 F120.00
G01 X35.6614 Y28.9572 F120.00
G01 X35.6155 Y28.8298 F120.00
G01 X35.5574 Y28.7075 F120.00
G01 X35.4901 Y28.5951 F120.00
G01 X35.4068 Y28.4828 F120.00
G01 X35.3157 Y28.3826 F120.00
G01 X35.2152 Y28.2918 F120.00
G01 X35.1063 Y28.2113 F120.00
G01 X34.9900 Y28.1419 F120.00
G01 X34.8675 Y28.0842 F120.00
G01 X34.7400 Y28.0388 F120.00
G01 X34.6085 Y28.0061 F120.00
G01 X34.4790 Y27.9869 F120.00
G01 X34.3393 Y27.9800 F120.00
G01 X34.2040 Y27.9869 F120.00
G01 X34.0701 Y28.0069 F120.00
G01 X33.9388 Y28.0401 F120.00
G01 X33.8114 Y28.0859 F120.00
G01 X33.6891 Y28.1440 F120.00
G01 X33.5730 Y28.2138 F120.00
G01 X33.4644 Y28.2946 F120.00
G01 X33.3642 Y28.3857 F120.00
G01 X33.2734 Y28.4862 F120.00
G01 X33.1929 Y28.5951 F120.00
G01 X33.1235 Y28.7114 F120.00
G01 X33.0675 Y28.8298 F120.00
G01 X33.0203 Y28.9615 F120.00
G01 X32.9877 Y29.0929 F120.00
G01 X32.9680 Y29.2269 F120.00
G01 X32.9616 Y29.3621 F120.00
G01 X32.9684 Y29.4974 F120.00
G01 X32.9885 Y29.6313 F120.00
G01 X33.0216 Y29.7626 F120.00
G01 X33.0675 Y29.8900 F120.00
G01 X33.1256 Y30.0124 F120.00
G01 X33.1954 Y30.1284 F120.00
G01 X33.2762 Y30.2370 F120.00
G01 X33.3642 Y30.3341 F120.00
G01 X33.3673 Y30.3372 F120.00
G01 X33.4644 Y30.4252 F120.00
G01 X33.4678 Y30.4280 F120.00
G01 X33.5730 Y30.5061 F120.00
G01 X33.5767 Y30.5085 F120.00
G01 X33.6891 Y30.5759 F120.00
G01 X33.6930 Y30.5780 F120.00
G01 X33.8114 Y30.6340 F120.00
G01 X33.8155 Y30.6357 F120.00
G01 X33.9388 Y30.6798 F120.00
M5
G00 X35.0224 Y37.6740
G01 F60.00
M03 S5000.0
G01 F120.00
G01 X35.0224 Y38.6858 F120.00
G01 X34.9822 Y38.6228 F120.00
G01 X34.9822 Y37.7371 F120.00
G01 X34.9420 Y37.8146 F120.00
G01 X34.9420 Y38.5453 F120.00
G01 X34.9018 Y38.4421 F120.00
G01 X34.9018 Y37.9177 F120.00
M5
G00 X35.0626 Y38.7397
G01 F60.00
M03 S5000.0
G01 F120.00
G01 X35.0626 Y37.6202 F120.00
G01 X35.1028 Y37.5758 F120.00
G01 X35.1028 Y38.7841 F120.00
G01 X35.1430 Y38.8237 F120.00
G01 X35.1430 Y37.5361 F120.00
G01 X35.1832 Y37.4998 F120.00
G01 X35.1832 Y38.8600 F120.00
G01 X35.2234 Y38.8900 F120.00
G01 X35.2234 Y37.4699 F120.00
G01 X35.2636 Y37.4416 F120.00
G01 X35.2636 Y38.9182 F120.00
G01 X35.3038 Y38.9423 F120.00
G01 X35.3038 Y37.4175 F120.00
G01 X35.3440 Y37.3956 F120.00
G01 X35.3440 Y38.9642 F120.00
G01 X35.3842 Y38.9832 F120.00
G01 X35.3842 Y37.3766 F120.00
G01 X35.4244 Y37.3598 F120.00
G01 X35.4244 Y39.0000 F120.00
G01 X35.4646 Y39.0144 F120.00
G01 X35.4646 Y37.3455 F120.00
G01 X35.5048 Y37.3331 F120.00
G01 X35.5048 Y39.0268 F120.00
G01 X35.4840 Y39.0213 F120.00
G01 X35.4882 Y39.0226 F120.00
G01 X35.5677 Y39.0425 F120.00
G01 X35.5720 Y39.0434 F120.00
G01 X35.6531 Y39.0554 F120.00
G01 X35.6574 Y39.0558 F120.00
G01 X35.7393 Y39.0598 F120.00
G01 X35.7437 Y39.0598 F120.00
G01 X35.8255 Y39.0558 F120.00
G01 X35.8299 Y39.0554 F120.00
G01 X35.9110 Y39.0434 F120.00
G01 X35.9153 Y39.0425 F120.00
G01 X35.9948 Y39.0226 F120.00
G01 X35.9990 Y39.0213 F120.00
G01 X36.0762 Y38.9937 F120.00
G01 X36.0803 Y38.9920 F120.00
G01 X36.1543 Y38.9570 F120.00
G01 X36.1582 Y38.9549 F120.00
G01 X36.2285 Y38.9128 F120.00
G01 X36.2322 Y38.9103 F120.00
G01 X36.2980 Y38.8615 F120.00
G01 X36.3014 Y38.8587 F120.00
G01 X36.3621 Y38.8037 F120.00
G01 X36.3653 Y38.8006 F120.00
G01 X36.4203 Y38.7398 F120.00
G01 X36.4231 Y38.7364 F120.00
G01 X36.4719 Y38.6706 F120.00
G01 X36.4744 Y38.6669 F120.00
G01 X36.5165 Y38.5967 F120.00
G01 X36.5186 Y38.5928 F120.00
G01 X36.5536 Y38.5187 F120.00
G01 X36.5553 Y38.5146 F120.00
G01 X36.5842 Y38.4332 F120.00
G01 X36.6041 Y38.3538 F120.00
G01 X36.6174 Y38.2640 F120.00
G01 X36.6214 Y38.1777 F120.00
G01 X36.6170 Y38.0915 F120.00
G01 X36.6049 Y38.0104 F120.00
G01 X36.6041 Y38.0061 F120.00
G01 X36.5842 Y37.9266 F120.00
G01 X36.5829 Y37.9224 F120.00
G01 X36.5536 Y37.8411 F120.00
G01 X36.5186 Y37.7671 F120.00
G01 X36.5165 Y37.7632 F120.00
G01 X36.4744 Y37.6929 F120.00
G01 X36.4719 Y37.6892 F120.00
G01 X36.4231 Y37.6234 F120.00
G01 X36.4203 Y37.6200 F120.00
G01 X36.3653 Y37.5593 F120.00
G01 X36.3621 Y37.5562 F120.00
G01 X36.3014 Y37.5011 F120.00
G01 X36.2980 Y37.4983 F120.00
G01 X36.2322 Y37.4495 F120.00
G01 X36.2285 Y37.4471 F120.00
G01 X36.1582 Y37.4049 F120.00
G01 X36.1543 Y37.4029 F120.00
G01 X36.0803 Y37.3678 F120.00
G01 X36.0762 Y37.3661 F120.00
G01 X35.9990 Y37.3385 F120.00
G01 X35.9948 Y37.3372 F120.00
G01 X35.9153 Y37.3173 F120.00
G01 X35.9110 Y37.3165 F120.00
G01 X35.8299 Y37.3044 F120.00
G01 X35.8255 Y37.3040 F120.00
G01 X35.7437 Y37.3000 F120.00
G01 X35.7393 Y37.3000 F120.00
G01 X35.6574 Y37.3040 F120.00
G01 X35.6531 Y37.3044 F120.00
G01 X35.5720 Y37.3165 F120.00
G01 X35.5677 Y37.3173 F120.00
G01 X35.4882 Y37.3372 F120.00
G01 X35.4840 Y37.3385 F120.00
G01 X35.4068 Y37.3661 F120.00
G01 X35.4027 Y37.3678 F120.00
G01 X35.3286 Y37.4029 F120.00
G01 X35.3248 Y37.4049 F120.00
G01 X35.2545 Y37.4471 F120.00
G01 X35.2508 Y37.4495 F120.00
G01 X35.1850 Y37.4983 F120.00
G01 X35.1816 Y37.5011 F120.00
G01 X35.1209 Y37.5562 F120.00
G01 X35.1177 Y37.5593 F120.00
G01 X35.0627 Y37.6200 F120.00
G01 X35.0599 Y37.6234 F120.00
G01 X35.0086 Y37.6929 F120.00
G01 X34.9644 Y37.7671 F120.00
G01 X34.9294 Y37.8411 F120.00
G01 X34.8988 Y37.9266 F120.00
G01 X34.8780 Y38.0104 F120.00
G01 X34.8660 Y38.0915 F120.00
G01 X34.8616 Y38.1821 F120.00
G01 X34.8660 Y38.2684 F120.00
G01 X34.8780 Y38.3494 F120.00
G01 X34.9001 Y38.4375 F120.00
G01 X34.9294 Y38.5187 F120.00
G01 X34.9644 Y38.5928 F120.00
G01 X35.0111 Y38.6706 F120.00
G01 X35.0599 Y38.7364 F120.00
G01 X35.0627 Y38.7398 F120.00
G01 X35.1177 Y38.8006 F120.00
G01 X35.1209 Y38.8037 F120.00
G01 X35.1816 Y38.8587 F120.00
G01 X35.1850 Y38.8615 F120.00
G01 X35.2508 Y38.9103 F120.00
G01 X35.2545 Y38.9128 F120.00
G01 X35.3248 Y38.9549 F120.00
G01 X35.3286 Y38.9570 F120.00
G01 X35.4027 Y38.9920 F120.00
G01 X35.4068 Y38.9937 F120.00
G01 X35.4840 Y39.0213 F120.00
G01 X35.5450 Y39.0368 F120.00
G01 X35.5450 Y37.3230 F120.00
G01 X35.5852 Y37.3145 F120.00
G01 X35.5852 Y39.0453 F120.00
G01 X35.6254 Y39.0513 F120.00
G01 X35.6254 Y37.3086 F120.00
G01 X35.6656 Y37.3036 F120.00
G01 X35.6656 Y39.0562 F120.00
G01 X35.7058 Y39.0582 F120.00
G01 X35.7058 Y37.3016 F120.00
G01 X35.7460 Y37.3001 F120.00
G01 X35.7460 Y39.0597 F120.00
G01 X35.7862 Y39.0578 F120.00
G01 X35.7862 Y37.3021 F120.00
G01 X35.8264 Y37.3041 F120.00
G01 X35.8264 Y39.0557 F120.00
G01 X35.8666 Y39.0500 F120.00
G01 X35.8666 Y37.3099 F120.00
G01 X35.9068 Y37.3158 F120.00
G01 X35.9068 Y39.0440 F120.00
G01 X35.9470 Y39.0346 F120.00
G01 X35.9470 Y37.3253 F120.00
G01 X35.9872 Y37.3353 F120.00
G01 X35.9872 Y39.0245 F120.00
G01 X36.0274 Y39.0112 F120.00
G01 X36.0274 Y37.3487 F120.00
G01 X36.0676 Y37.3630 F120.00
G01 X36.0676 Y38.9968 F120.00
G01 X36.1078 Y38.9790 F120.00
G01 X36.1078 Y37.3808 F120.00
G01 X36.1480 Y37.3998 F120.00
G01 X36.1480 Y38.9600 F120.00
G01 X36.1882 Y38.9370 F120.00
G01 X36.1882 Y37.4229 F120.00
G01 X36.2284 Y37.4470 F120.00
G01 X36.2284 Y38.9129 F120.00
G01 X36.2686 Y38.8834 F120.00
G01 X36.2686 Y37.4765 F120.00
G01 X36.3088 Y37.5078 F120.00
G01 X36.3088 Y38.8521 F120.00
G01 X36.3490 Y38.8156 F120.00
G01 X36.3490 Y37.5442 F120.00
G01 X36.3892 Y37.5857 F120.00
G01 X36.3892 Y38.7742 F120.00
G01 X36.4294 Y38.7280 F120.00
G01 X36.4294 Y37.6319 F120.00
G01 X36.4696 Y37.6861 F120.00
G01 X36.4696 Y38.6738 F120.00
G01 X36.5098 Y38.6079 F120.00
G01 X36.5098 Y37.7520 F120.00
G01 X36.5500 Y37.8335 F120.00
G01 X36.5500 Y38.5264 F120.00
G01 X36.5902 Y38.4093 F120.00
G01 X36.5902 Y37.9505 F120.00
M5
G00 X34.0502 Y37.9505
G01 F60.00
M03 S5000.0
G01 F120.00
G01 X34.0502 Y38.4093 F120.00
G01 X34.0100 Y38.5264 F120.00
G01 X34.0100 Y37.8335 F120.00
G01 X33.9698 Y37.7520 F120.00
G01 X33.9698 Y38.6079 F120.00
G01 X33.9296 Y38.6738 F120.00
G01 X33.9296 Y37.6861 F120.00
G01 X33.8894 Y37.6319 F120.00
G01 X33.8894 Y38.7280 F120.00
G01 X33.8492 Y38.7742 F120.00
G01 X33.8492 Y37.5857 F120.00
G01 X33.8090 Y37.5442 F120.00
G01 X33.8090 Y38.8156 F120.00
G01 X33.7688 Y38.8521 F120.00
G01 X33.7688 Y37.5078 F120.00
G01 X33.7286 Y37.4765 F120.00
G01 X33.7286 Y38.8834 F120.00
G01 X33.6884 Y38.9129 F120.00
G01 X33.6884 Y37.4470 F120.00
G01 X33.6482 Y37.4229 F120.00
G01 X33.6482 Y38.9370 F120.00
G01 X33.6080 Y38.9600 F120.00
G01 X33.6080 Y37.3998 F120.00
G01 X33.5678 Y37.3808 F120.00
G01 X33.5678 Y38.9790 F120.00
G01 X33.5276 Y38.9968 F120.00
G01 X33.5276 Y37.3630 F120.00
G01 X33.4874 Y37.3487 F120.00
G01 X33.4874 Y39.0112 F120.00
G01 X33.4472 Y39.0245 F120.00
G01 X33.4472 Y37.3353 F120.00
G01 X33.4070 Y37.3253 F120.00
G01 X33.4070 Y39.0346 F120.00
G01 X33.3668 Y39.0440 F120.00
G01 X33.3668 Y37.3158 F120.00
G01 X33.3266 Y37.3099 F120.00
G01 X33.3266 Y39.0500 F120.00
G01 X33.2864 Y39.0557 F120.00
G01 X33.2864 Y37.3041 F120.00
G01 X33.2462 Y37.3021 F120.00
G01 X33.2462 Y39.0578 F120.00
G01 X33.2060 Y39.0597 F120.00
G01 X33.2060 Y37.3001 F120.00
G01 X33.1658 Y37.3016 F120.00
G01 X33.1658 Y39.0582 F120.00
G01 X33.1256 Y39.0562 F120.00
G01 X33.1256 Y37.3036 F120.00
G01 X33.0854 Y37.3086 F120.00
G01 X33.0854 Y39.0513 F120.00
G01 X33.0452 Y39.0453 F120.00
G01 X33.0452 Y37.3145 F120.00
G01 X33.0050 Y37.3230 F120.00
G01 X33.0050 Y39.0368 F120.00
G01 X32.9440 Y39.0213 F120.00
G01 X32.8668 Y38.9937 F120.00
G01 X32.8627 Y38.9920 F120.00
G01 X32.7886 Y38.9570 F120.00
G01 X32.7848 Y38.9549 F120.00
G01 X32.7145 Y38.9128 F120.00
G01 X32.7108 Y38.9103 F120.00
G01 X32.6450 Y38.8615 F120.00
G01 X32.6416 Y38.8587 F120.00
G01 X32.5809 Y38.8037 F120.00
G01 X32.5777 Y38.8006 F120.00
G01 X32.5227 Y38.7398 F120.00
G01 X32.5199 Y38.7364 F120.00
G01 X32.4711 Y38.6706 F120.00
G01 X32.4244 Y38.5928 F120.00
G01 X32.3894 Y38.5187 F120.00
G01 X32.3601 Y38.4375 F120.00
G01 X32.3380 Y38.3494 F120.00
G01 X32.3260 Y38.2684 F120.00
G01 X32.3216 Y38.1821 F120.00
G01 X32.3260 Y38.0915 F120.00
G01 X32.3380 Y38.0104 F120.00
G01 X32.3588 Y37.9266 F120.00
G01 X32.3894 Y37.8411 F120.00
G01 X32.4244 Y37.7671 F120.00
G01 X32.4686 Y37.6929 F120.00
G01 X32.5199 Y37.6234 F120.00
G01 X32.5227 Y37.6200 F120.00
G01 X32.5777 Y37.5593 F120.00
G01 X32.5809 Y37.5562 F120.00
G01 X32.6416 Y37.5011 F120.00
G01 X32.6450 Y37.4983 F120.00
G01 X32.7108 Y37.4495 F120.00
G01 X32.7145 Y37.4471 F120.00
G01 X32.7848 Y37.4049 F120.00
G01 X32.7886 Y37.4029 F120.00
G01 X32.8627 Y37.3678 F120.00
G01 X32.8668 Y37.3661 F120.00
G01 X32.9440 Y37.3385 F120.00
G01 X32.9482 Y37.3372 F120.00
G01 X33.0277 Y37.3173 F120.00
G01 X33.0320 Y37.3165 F120.00
G01 X33.1131 Y37.3044 F120.00
G01 X33.1174 Y37.3040 F120.00
G01 X33.1993 Y37.3000 F120.00
G01 X33.2037 Y37.3000 F120.00
G01 X33.2855 Y37.3040 F120.00
G01 X33.2899 Y37.3044 F120.00
G01 X33.3710 Y37.3165 F120.00
G01 X33.3753 Y37.3173 F120.00
G01 X33.4548 Y37.3372 F120.00
G01 X33.4590 Y37.3385 F120.00
G01 X33.5362 Y37.3661 F120.00
G01 X33.5403 Y37.3678 F120.00
G01 X33.6143 Y37.4029 F120.00
G01 X33.6182 Y37.4049 F120.00
G01 X33.6885 Y37.4471 F120.00
G01 X33.6922 Y37.4495 F120.00
G01 X33.7580 Y37.4983 F120.00
G01 X33.7614 Y37.5011 F120.00
G01 X33.8221 Y37.5562 F120.00
G01 X33.8253 Y37.5593 F120.00
G01 X33.8803 Y37.6200 F120.00
G01 X33.8831 Y37.6234 F120.00
G01 X33.9319 Y37.6892 F120.00
G01 X33.9344 Y37.6929 F120.00
G01 X33.9765 Y37.7632 F120.00
G01 X33.9786 Y37.7671 F120.00
G01 X34.0136 Y37.8411 F120.00
G01 X34.0429 Y37.9224 F120.00
G01 X34.0442 Y37.9266 F120.00
G01 X34.0641 Y38.0061 F120.00
G01 X34.0649 Y38.0104 F120.00
G01 X34.0770 Y38.0915 F120.00
G01 X34.0814 Y38.1777 F120.00
G01 X34.0774 Y38.2640 F120.00
G01 X34.0641 Y38.3538 F120.00
G01 X34.0442 Y38.4332 F120.00
G01 X34.0153 Y38.5146 F120.00
G01 X34.0136 Y38.5187 F120.00
G01 X33.9786 Y38.5928 F120.00
G01 X33.9765 Y38.5967 F120.00
G01 X33.9344 Y38.6669 F120.00
G01 X33.9319 Y38.6706 F120.00
G01 X33.8831 Y38.7364 F120.00
G01 X33.8803 Y38.7398 F120.00
G01 X33.8253 Y38.8006 F120.00
G01 X33.8221 Y38.8037 F120.00
G01 X33.7614 Y38.8587 F120.00
G01 X33.7580 Y38.8615 F120.00
G01 X33.6922 Y38.9103 F120.00
G01 X33.6885 Y38.9128 F120.00
G01 X33.6182 Y38.9549 F120.00
G01 X33.6143 Y38.9570 F120.00
G01 X33.5403 Y38.9920 F120.00
G01 X33.5362 Y38.9937 F120.00
G01 X33.4590 Y39.0213 F120.00
G01 X33.4548 Y39.0226 F120.00
G01 X33.3753 Y39.0425 F120.00
G01 X33.3710 Y39.0434 F120.00
G01 X33.2899 Y39.0554 F120.00
G01 X33.2855 Y39.0558 F120.00
G01 X33.2037 Y39.0598 F120.00
G01 X33.1993 Y39.0598 F120.00
G01 X33.1174 Y39.0558 F120.00
G01 X33.1131 Y39.0554 F120.00
G01 X33.0320 Y39.0434 F120.00
G01 X33.0277 Y39.0425 F120.00
G01 X32.9482 Y39.0226 F120.00
G01 X32.9440 Y39.0213 F120.00
G01 X32.9648 Y39.0268 F120.00
G01 X32.9648 Y37.3331 F120.00
G01 X32.9246 Y37.3455 F120.00
G01 X32.9246 Y39.0144 F120.00
G01 X32.8844 Y39.0000 F120.00
G01 X32.8844 Y37.3598 F120.00
G01 X32.8442 Y37.3766 F120.00
G01 X32.8442 Y38.9832 F120.00
G01 X32.8040 Y38.9642 F120.00
G01 X32.8040 Y37.3956 F120.00
G01 X32.7638 Y37.4175 F120.00
G01 X32.7638 Y38.9423 F120.00
G01 X32.7236 Y38.9182 F120.00
G01 X32.7236 Y37.4416 F120.00
G01 X32.6834 Y37.4699 F120.00
G01 X32.6834 Y38.8900 F120.00
G01 X32.6432 Y38.8600 F120.00
G01 X32.6432 Y37.4998 F120.00
G01 X32.6030 Y37.5361 F120.00
G01 X32.6030 Y38.8237 F120.00
G01 X32.5628 Y38.7841 F120.00
G01 X32.5628 Y37.5758 F120.00
G01 X32.5226 Y37.6202 F120.00
G01 X32.5226 Y38.7397 F120.00
M5
G00 X32.4824 Y37.6740
G01 F60.00
M03 S5000.0
G01 F120.00
G01 X32.4824 Y38.6858 F120.00
G01 X32.4422 Y38.6228 F120.00
G01 X32.4422 Y37.7371 F120.00
G01 X32.4020 Y37.8146 F120.00
G01 X32.4020 Y38.5453 F120.00
G01 X32.3618 Y38.4421 F120.00
G01 X32.3618 Y37.9177 F120.00
M5
G00 X32.3618 Y40.4577
G01 F60.00
M03 S5000.0
G01 F120.00
G01 X32.3618 Y40.9821 F120.00
G01 X32.4020 Y41.0853 F120.00
G01 X32.4020 Y40.3546 F120.00
G01 X32.4422 Y40.2771 F120.00
G01 X32.4422 Y41.1628 F120.00
M5
G00 X32.4824 Y41.2258
G01 F60.00
M03 S5000.0
G01 F120.00
G01 X32.4824 Y40.2140 F120.00
G01 X32.5226 Y40.1602 F120.00
G01 X32.5226 Y41.2797 F120.00
G01 X32.5628 Y41.3241 F120.00
G01 X32.5628 Y40.1158 F120.00
G01 X32.6030 Y40.0761 F120.00
G01 X32.6030 Y41.3637 F120.00
G01 X32.6432 Y41.4000 F120.00
G01 X32.6432 Y40.0398 F120.00
G01 X32.6834 Y40.0099 F120.00
G01 X32.6834 Y41.4300 F120.00
G01 X32.7236 Y41.4582 F120.00
G01 X32.7236 Y39.9816 F120.00
G01 X32.7638 Y39.9575 F120.00
G01 X32.7638 Y41.4823 F120.00
G01 X32.8040 Y41.5042 F120.00
G01 X32.8040 Y39.9356 F120.00
G01 X32.8442 Y39.9166 F120.00
G01 X32.8442 Y41.5232 F120.00
G01 X32.8844 Y41.5400 F120.00
G01 X32.8844 Y39.8998 F120.00
G01 X32.9246 Y39.8855 F120.00
G01 X32.9246 Y41.5544 F120.00
G01 X32.9440 Y41.5613 F120.00
G01 X32.9482 Y41.5626 F120.00
G01 X33.0277 Y41.5825 F120.00
G01 X33.0320 Y41.5834 F120.00
G01 X33.1131 Y41.5954 F120.00
G01 X33.1174 Y41.5958 F120.00
G01 X33.1993 Y41.5998 F120.00
G01 X33.2037 Y41.5998 F120.00
G01 X33.2855 Y41.5958 F120.00
G01 X33.2899 Y41.5954 F120.00
G01 X33.3710 Y41.5834 F120.00
G01 X33.3753 Y41.5825 F120.00
G01 X33.4548 Y41.5626 F120.00
G01 X33.4590 Y41.5613 F120.00
G01 X33.5362 Y41.5337 F120.00
G01 X33.5403 Y41.5320 F120.00
G01 X33.6143 Y41.4970 F120.00
G01 X33.6182 Y41.4949 F120.00
G01 X33.6885 Y41.4528 F120.00
G01 X33.6922 Y41.4503 F120.00
G01 X33.7580 Y41.4015 F120.00
G01 X33.7614 Y41.3987 F120.00
G01 X33.8221 Y41.3437 F120.00
G01 X33.8253 Y41.3406 F120.00
G01 X33.8803 Y41.2798 F120.00
G01 X33.8831 Y41.2764 F120.00
G01 X33.9319 Y41.2106 F120.00
G01 X33.9344 Y41.2069 F120.00
G01 X33.9765 Y41.1367 F120.00
G01 X33.9786 Y41.1328 F120.00
G01 X34.0136 Y41.0587 F120.00
G01 X34.0153 Y41.0546 F120.00
G01 X34.0442 Y40.9732 F120.00
G01 X34.0641 Y40.8938 F120.00
G01 X34.0774 Y40.8040 F120.00
G01 X34.0814 Y40.7177 F120.00
G01 X34.0770 Y40.6315 F120.00
G01 X34.0649 Y40.5504 F120.00
G01 X34.0641 Y40.5461 F120.00
G01 X34.0442 Y40.4666 F120.00
G01 X34.0429 Y40.4624 F120.00
G01 X34.0136 Y40.3811 F120.00
G01 X33.9786 Y40.3071 F120.00
G01 X33.9765 Y40.3032 F120.00
G01 X33.9344 Y40.2329 F120.00
G01 X33.9319 Y40.2292 F120.00
G01 X33.8831 Y40.1634 F120.00
G01 X33.8803 Y40.1600 F120.00
G01 X33.8253 Y40.0993 F120.00
G01 X33.8221 Y40.0962 F120.00
G01 X33.7614 Y40.0411 F120.00
G01 X33.7580 Y40.0383 F120.00
G01 X33.6922 Y39.9895 F120.00
G01 X33.6885 Y39.9871 F120.00
G01 X33.6182 Y39.9449 F120.00
G01 X33.6143 Y39.9429 F120.00
G01 X33.5403 Y39.9078 F120.00
G01 X33.5362 Y39.9061 F120.00
G01 X33.4590 Y39.8785 F120.00
G01 X33.4548 Y39.8772 F120.00
G01 X33.3753 Y39.8573 F120.00
G01 X33.3710 Y39.8565 F120.00
G01 X33.2899 Y39.8444 F120.00
G01 X33.2855 Y39.8440 F120.00
G01 X33.2037 Y39.8400 F120.00
G01 X33.1993 Y39.8400 F120.00
G01 X33.1174 Y39.8440 F120.00
G01 X33.1131 Y39.8444 F120.00
G01 X33.0320 Y39.8565 F120.00
G01 X33.0277 Y39.8573 F120.00
G01 X32.9482 Y39.8772 F120.00
G01 X32.9440 Y39.8785 F120.00
G01 X32.8668 Y39.9061 F120.00
G01 X32.8627 Y39.9078 F120.00
G01 X32.7886 Y39.9429 F120.00
G01 X32.7848 Y39.9449 F120.00
G01 X32.7145 Y39.9871 F120.00
G01 X32.7108 Y39.9895 F120.00
G01 X32.6450 Y40.0383 F120.00
G01 X32.6416 Y40.0411 F120.00
G01 X32.5809 Y40.0962 F120.00
G01 X32.5777 Y40.0993 F120.00
G01 X32.5227 Y40.1600 F120.00
G01 X32.5199 Y40.1634 F120.00
G01 X32.4711 Y40.2292 F120.00
G01 X32.4686 Y40.2329 F120.00
G01 X32.4244 Y40.3071 F120.00
G01 X32.3877 Y40.3852 F120.00
G01 X32.3601 Y40.4624 F120.00
G01 X32.3380 Y40.5504 F120.00
G01 X32.3256 Y40.6359 F120.00
G01 X32.3216 Y40.7221 F120.00
G01 X32.3256 Y40.8040 F120.00
G01 X32.3389 Y40.8938 F120.00
G01 X32.3601 Y40.9775 F120.00
G01 X32.3877 Y41.0546 F120.00
G01 X32.4265 Y41.1367 F120.00
G01 X32.4711 Y41.2106 F120.00
G01 X32.5199 Y41.2764 F120.00
G01 X32.5227 Y41.2798 F120.00
G01 X32.5777 Y41.3406 F120.00
G01 X32.5809 Y41.3437 F120.00
G01 X32.6416 Y41.3987 F120.00
G01 X32.6450 Y41.4015 F120.00
G01 X32.7108 Y41.4503 F120.00
G01 X32.7145 Y41.4528 F120.00
G01 X32.7848 Y41.4949 F120.00
G01 X32.7886 Y41.4970 F120.00
G01 X32.8627 Y41.5320 F120.00
G01 X32.8668 Y41.5337 F120.00
G01 X32.9440 Y41.5613 F120.00
G01 X32.9648 Y41.5668 F120.00
G01 X32.9648 Y39.8731 F120.00
G01 X33.0050 Y39.8630 F120.00
G01 X33.0050 Y41.5768 F120.00
G01 X33.0452 Y41.5853 F120.00
G01 X33.0452 Y39.8545 F120.00
G01 X33.0854 Y39.8486 F120.00
G01 X33.0854 Y41.5913 F120.00
G01 X33.1256 Y41.5962 F120.00
G01 X33.1256 Y39.8436 F120.00
G01 X33.1658 Y39.8416 F120.00
G01 X33.1658 Y41.5982 F120.00
G01 X33.2060 Y41.5997 F120.00
G01 X33.2060 Y39.8401 F120.00
G01 X33.2462 Y39.8421 F120.00
G01 X33.2462 Y41.5978 F120.00
G01 X33.2864 Y41.5957 F120.00
G01 X33.2864 Y39.8441 F120.00
G01 X33.3266 Y39.8499 F120.00
G01 X33.3266 Y41.5900 F120.00
G01 X33.3668 Y41.5840 F120.00
G01 X33.3668 Y39.8558 F120.00
G01 X33.4070 Y39.8653 F120.00
G01 X33.4070 Y41.5746 F120.00
G01 X33.4472 Y41.5645 F120.00
G01 X33.4472 Y39.8753 F120.00
G01 X33.4874 Y39.8887 F120.00
G01 X33.4874 Y41.5512 F120.00
G01 X33.5276 Y41.5368 F120.00
G01 X33.5276 Y39.9030 F120.00
G01 X33.5678 Y39.9208 F120.00
G01 X33.5678 Y41.5190 F120.00
G01 X33.6080 Y41.5000 F120.00
G01 X33.6080 Y39.9398 F120.00
G01 X33.6482 Y39.9629 F120.00
G01 X33.6482 Y41.4770 F120.00
G01 X33.6884 Y41.4529 F120.00
G01 X33.6884 Y39.9870 F120.00
G01 X33.7286 Y40.0165 F120.00
G01 X33.7286 Y41.4234 F120.00
G01 X33.7688 Y41.3921 F120.00
G01 X33.7688 Y40.0478 F120.00
G01 X33.8090 Y40.0842 F120.00
G01 X33.8090 Y41.3556 F120.00
G01 X33.8492 Y41.3142 F120.00
G01 X33.8492 Y40.1257 F120.00
G01 X33.8894 Y40.1719 F120.00
G01 X33.8894 Y41.2680 F120.00
G01 X33.9296 Y41.2138 F120.00
G01 X33.9296 Y40.2261 F120.00
G01 X33.9698 Y40.2920 F120.00
G01 X33.9698 Y41.1479 F120.00
G01 X34.0100 Y41.0664 F120.00
G01 X34.0100 Y40.3735 F120.00
G01 X34.0502 Y40.4905 F120.00
G01 X34.0502 Y40.9493 F120.00
M5
G00 X34.9822 Y41.1628
G01 F60.00
M03 S5000.0
G01 F120.00
G01 X34.9822 Y40.2771 F120.00
G01 X34.9420 Y40.3546 F120.00
G01 X34.9420 Y41.0853 F120.00
G01 X34.9018 Y40.9821 F120.00
G01 X34.9018 Y40.4577 F120.00
M5
G00 X35.0224 Y41.2258
G01 F60.00
M03 S5000.0
G01 F120.00
G01 X35.0224 Y40.2140 F120.00
G01 X35.0626 Y40.1602 F120.00
G01 X35.0626 Y41.2797 F120.00
G01 X35.1028 Y41.3241 F120.00
G01 X35.1028 Y40.1158 F120.00
G01 X35.1430 Y40.0761 F120.00
G01 X35.1430 Y41.3637 F120.00
G01 X35.1832 Y41.4000 F120.00
G01 X35.1832 Y40.0398 F120.00
G01 X35.2234 Y40.0099 F120.00
G01 X35.2234 Y41.4300 F120.00
G01 X35.2636 Y41.4582 F120.00
G01 X35.2636 Y39.9816 F120.00
G01 X35.3038 Y39.9575 F120.00
G01 X35.3038 Y41.4823 F120.00
G01 X35.3440 Y41.5042 F120.00
G01 X35.3440 Y39.9356 F120.00
G01 X35.3842 Y39.9166 F120.00
G01 X35.3842 Y41.5232 F120.00
G01 X35.4244 Y41.5400 F120.00
G01 X35.4244 Y39.8998 F120.00
G01 X35.4646 Y39.8855 F120.00
G01 X35.4646 Y41.5544 F120.00
G01 X35.4840 Y41.5613 F120.00
G01 X35.4882 Y41.5626 F120.00
G01 X35.5677 Y41.5825 F120.00
G01 X35.5720 Y41.5834 F120.00
G01 X35.6531 Y41.5954 F120.00
G01 X35.6574 Y41.5958 F120.00
G01 X35.7393 Y41.5998 F120.00
G01 X35.7437 Y41.5998 F120.00
G01 X35.8255 Y41.5958 F120.00
G01 X35.8299 Y41.5954 F120.00
G01 X35.9110 Y41.5834 F120.00
G01 X35.9153 Y41.5825 F120.00
G01 X35.9948 Y41.5626 F120.00
G01 X35.9990 Y41.5613 F120.00
G01 X36.0762 Y41.5337 F120.00
G01 X36.0803 Y41.5320 F120.00
G01 X36.1543 Y41.4970 F120.00
G01 X36.1582 Y41.4949 F120.00
G01 X36.2285 Y41.4528 F120.00
G01 X36.2322 Y41.4503 F120.00
G01 X36.2980 Y41.4015 F120.00
G01 X36.3014 Y41.3987 F120.00
G01 X36.3621 Y41.3437 F120.00
G01 X36.3653 Y41.3406 F120.00
G01 X36.4203 Y41.2798 F120.00
G01 X36.4231 Y41.2764 F120.00
G01 X36.4719 Y41.2106 F120.00
G01 X36.4744 Y41.2069 F120.00
G01 X36.5165 Y41.1367 F120.00
G01 X36.5186 Y41.1328 F120.00
G01 X36.5536 Y41.0587 F120.00
G01 X36.5553 Y41.0546 F120.00
G01 X36.5842 Y40.9732 F120.00
G01 X36.6041 Y40.8938 F120.00
G01 X36.6174 Y40.8040 F120.00
G01 X36.6214 Y40.7177 F120.00
G01 X36.6170 Y40.6315 F120.00
G01 X36.6049 Y40.5504 F120.00
G01 X36.6041 Y40.5461 F120.00
G01 X36.5842 Y40.4666 F120.00
G01 X36.5829 Y40.4624 F120.00
G01 X36.5536 Y40.3811 F120.00
G01 X36.5186 Y40.3071 F120.00
G01 X36.5165 Y40.3032 F120.00
G01 X36.4744 Y40.2329 F120.00
G01 X36.4719 Y40.2292 F120.00
G01 X36.4231 Y40.1634 F120.00
G01 X36.4203 Y40.1600 F120.00
G01 X36.3653 Y40.0993 F120.00
G01 X36.3621 Y40.0962 F120.00
G01 X36.3014 Y40.0411 F120.00
G01 X36.2980 Y40.0383 F120.00
G01 X36.2322 Y39.9895 F120.00
G01 X36.2285 Y39.9871 F120.00
G01 X36.1582 Y39.9449 F120.00
G01 X36.1543 Y39.9429 F120.00
G01 X36.0803 Y39.9078 F120.00
G01 X36.0762 Y39.9061 F120.00
G01 X35.9990 Y39.8785 F120.00
G01 X35.9948 Y39.8772 F120.00
G01 X35.9153 Y39.8573 F120.00
G01 X35.9110 Y39.8565 F120.00
G01 X35.8299 Y39.8444 F120.00
G01 X35.8255 Y39.8440 F120.00
G01 X35.7437 Y39.8400 F120.00
G01 X35.7393 Y39.8400 F120.00
G01 X35.6574 Y39.8440 F120.00
G01 X35.6531 Y39.8444 F120.00
G01 X35.5720 Y39.8565 F120.00
G01 X35.5677 Y39.8573 F120.00
G01 X35.4882 Y39.8772 F120.00
G01 X35.4840 Y39.8785 F120.00
G01 X35.4068 Y39.9061 F120.00
G01 X35.4027 Y39.9078 F120.00
G01 X35.3286 Y39.9429 F120.00
G01 X35.3248 Y39.9449 F120.00
G01 X35.2545 Y39.9871 F120.00
G01 X35.2508 Y39.9895 F120.00
G01 X35.1850 Y40.0383 F120.00
G01 X35.1816 Y40.0411 F120.00
G01 X35.1209 Y40.0962 F120.00
G01 X35.1177 Y40.0993 F120.00
G01 X35.0627 Y40.1600 F120.00
G01 X35.0599 Y40.1634 F120.00
G01 X35.0111 Y40.2292 F120.00
G01 X35.0086 Y40.2329 F120.00
G01 X34.9644 Y40.3071 F120.00
G01 X34.9277 Y40.3852 F120.00
G01 X34.9001 Y40.4624 F120.00
G01 X34.8780 Y40.5504 F120.00
G01 X34.8656 Y40.6359 F120.00
G01 X34.8616 Y40.7221 F120.00
G01 X34.8656 Y40.8040 F120.00
G01 X34.8789 Y40.8938 F120.00
G01 X34.9001 Y40.9775 F120.00
G01 X34.9277 Y41.0546 F120.00
G01 X34.9665 Y41.1367 F120.00
G01 X35.0111 Y41.2106 F120.00
G01 X35.0599 Y41.2764 F120.00
G01 X35.0627 Y41.2798 F120.00
G01 X35.1177 Y41.3406 F120.00
G01 X35.1209 Y41.3437 F120.00
G01 X35.1816 Y41.3987 F120.00
G01 X35.1850 Y41.4015 F120.00
G01 X35.2508 Y41.4503 F120.00
G01 X35.2545 Y41.4528 F120.00
G01 X35.3248 Y41.4949 F120.00
G01 X35.3286 Y41.4970 F120.00
G01 X35.4027 Y41.5320 F120.00
G01 X35.4068 Y41.5337 F120.00
G01 X35.4840 Y41.5613 F120.00
G01 X35.5048 Y41.5668 F120.00
G01 X35.5048 Y39.8731 F120.00
G01 X35.5450 Y39.8630 F120.00
G01 X35.5450 Y41.5768 F120.00
G01 X35.5852 Y41.5853 F120.00
G01 X35.5852 Y39.8545 F120.00
G01 X35.6254 Y39.8486 F120.00
G01 X35.6254 Y41.5913 F120.00
G01 X35.6656 Y41.5962 F120.00
G01 X35.6656 Y39.8436 F120.00
G01 X35.7058 Y39.8416 F120.00
G01 X35.7058 Y41.5982 F120.00
G01 X35.7460 Y41.5997 F120.00
G01 X35.7460 Y39.8401 F120.00
G01 X35.7862 Y39.8421 F120.00
G01 X35.7862 Y41.5978 F120.00
G01 X35.8264 Y41.5957 F120.00
G01 X35.8264 Y39.8441 F120.00
G01 X35.8666 Y39.8499 F120.00
G01 X35.8666 Y41.5900 F120.00
G01 X35.9068 Y41.5840 F120.00
G01 X35.9068 Y39.8558 F120.00
G01 X35.9470 Y39.8653 F120.00
G01 X35.9470 Y41.5746 F120.00
G01 X35.9872 Y41.5645 F120.00
G01 X35.9872 Y39.8753 F120.00
G01 X36.0274 Y39.8887 F120.00
G01 X36.0274 Y41.5512 F120.00
G01 X36.0676 Y41.5368 F120.00
G01 X36.0676 Y39.9030 F120.00
G01 X36.1078 Y39.9208 F120.00
G01 X36.1078 Y41.5190 F120.00
G01 X36.1480 Y41.5000 F120.00
G01 X36.1480 Y39.9398 F120.00
G01 X36.1882 Y39.9629 F120.00
G01 X36.1882 Y41.4770 F120.00
G01 X36.2284 Y41.4529 F120.00
G01 X36.2284 Y39.9870 F120.00
G01 X36.2686 Y40.0165 F120.00
G01 X36.2686 Y41.4234 F120.00
G01 X36.3088 Y41.3921 F120.00
G01 X36.3088 Y40.0478 F120.00
G01 X36.3490 Y40.0842 F120.00
G01 X36.3490 Y41.3556 F120.00
G01 X36.3892 Y41.3142 F120.00
G01 X36.3892 Y40.1257 F120.00
G01 X36.4294 Y40.1719 F120.00
G01 X36.4294 Y41.2680 F120.00
G01 X36.4696 Y41.2138 F120.00
G01 X36.4696 Y40.2261 F120.00
G01 X36.5098 Y40.2920 F120.00
G01 X36.5098 Y41.1479 F120.00
G01 X36.5500 Y41.0664 F120.00
G01 X36.5500 Y40.3735 F120.00
G01 X36.5902 Y40.4905 F120.00
G01 X36.5902 Y40.9493 F120.00
M5
G00 X36.5902 Y43.4893
G01 F60.00
M03 S5000.0
G01 F120.00
G01 X36.5902 Y43.0305 F120.00
G01 X36.5500 Y42.9135 F120.00
G01 X36.5500 Y43.6064 F120.00
G01 X36.5098 Y43.6879 F120.00
G01 X36.5098 Y42.8320 F120.00
G01 X36.4696 Y42.7661 F120.00
G01 X36.4696 Y43.7538 F120.00
G01 X36.4294 Y43.8080 F120.00
G01 X36.4294 Y42.7119 F120.00
G01 X36.3892 Y42.6657 F120.00
G01 X36.3892 Y43.8542 F120.00
G01 X36.3490 Y43.8956 F120.00
G01 X36.3490 Y42.6242 F120.00
G01 X36.3088 Y42.5878 F120.00
G01 X36.3088 Y43.9321 F120.00
G01 X36.2686 Y43.9634 F120.00
G01 X36.2686 Y42.5565 F120.00
G01 X36.2284 Y42.5270 F120.00
G01 X36.2284 Y43.9929 F120.00
G01 X36.1882 Y44.0170 F120.00
G01 X36.1882 Y42.5029 F120.00
G01 X36.1480 Y42.4798 F120.00
G01 X36.1480 Y44.0400 F120.00
G01 X36.1078 Y44.0590 F120.00
G01 X36.1078 Y42.4608 F120.00
G01 X36.0676 Y42.4430 F120.00
G01 X36.0676 Y44.0768 F120.00
G01 X36.0274 Y44.0912 F120.00
G01 X36.0274 Y42.4287 F120.00
G01 X35.9872 Y42.4153 F120.00
G01 X35.9872 Y44.1045 F120.00
G01 X35.9470 Y44.1146 F120.00
G01 X35.9470 Y42.4053 F120.00
G01 X35.9068 Y42.3958 F120.00
G01 X35.9068 Y44.1240 F120.00
G01 X35.8666 Y44.1300 F120.00
G01 X35.8666 Y42.3899 F120.00
G01 X35.8264 Y42.3841 F120.00
G01 X35.8264 Y44.1357 F120.00
G01 X35.7862 Y44.1378 F120.00
G01 X35.7862 Y42.3821 F120.00
G01 X35.7460 Y42.3801 F120.00
G01 X35.7460 Y44.1397 F120.00
G01 X35.7058 Y44.1382 F120.00
G01 X35.7058 Y42.3816 F120.00
G01 X35.6656 Y42.3836 F120.00
G01 X35.6656 Y44.1362 F120.00
G01 X35.6254 Y44.1313 F120.00
G01 X35.6254 Y42.3886 F120.00
G01 X35.5852 Y42.3945 F120.00
G01 X35.5852 Y44.1253 F120.00
G01 X35.5450 Y44.1168 F120.00
G01 X35.5450 Y42.4030 F120.00
G01 X35.5048 Y42.4131 F120.00
G01 X35.5048 Y44.1068 F120.00
G01 X35.4840 Y44.1013 F120.00
G01 X35.4068 Y44.0737 F120.00
G01 X35.4027 Y44.0720 F120.00
G01 X35.3286 Y44.0370 F120.00
G01 X35.3248 Y44.0349 F120.00
G01 X35.2545 Y43.9928 F120.00
G01 X35.2508 Y43.9903 F120.00
G01 X35.1850 Y43.9415 F120.00
G01 X35.1816 Y43.9387 F120.00
G01 X35.1209 Y43.8837 F120.00
G01 X35.1177 Y43.8806 F120.00
G01 X35.0627 Y43.8198 F120.00
G01 X35.0599 Y43.8164 F120.00
G01 X35.0111 Y43.7506 F120.00
G01 X34.9665 Y43.6767 F120.00
G01 X34.9277 Y43.5946 F120.00
G01 X34.9001 Y43.5175 F120.00
G01 X34.8789 Y43.4338 F120.00
G01 X34.8656 Y43.3440 F120.00
G01 X34.8616 Y43.2621 F120.00
G01 X34.8656 Y43.1759 F120.00
G01 X34.8780 Y43.0904 F120.00
G01 X34.9001 Y43.0024 F120.00
G01 X34.9277 Y42.9252 F120.00
G01 X34.9644 Y42.8471 F120.00
G01 X35.0086 Y42.7729 F120.00
G01 X35.0111 Y42.7692 F120.00
G01 X35.0599 Y42.7034 F120.00
G01 X35.0627 Y42.7000 F120.00
G01 X35.1177 Y42.6393 F120.00
G01 X35.1209 Y42.6362 F120.00
G01 X35.1816 Y42.5811 F120.00
G01 X35.1850 Y42.5783 F120.00
G01 X35.2508 Y42.5295 F120.00
G01 X35.2545 Y42.5271 F120.00
G01 X35.3248 Y42.4849 F120.00
G01 X35.3286 Y42.4829 F120.00
G01 X35.4027 Y42.4478 F120.00
G01 X35.4068 Y42.4461 F120.00
G01 X35.4840 Y42.4185 F120.00
G01 X35.4882 Y42.4172 F120.00
G01 X35.5677 Y42.3973 F120.00
G01 X35.5720 Y42.3965 F120.00
G01 X35.6531 Y42.3844 F120.00
G01 X35.6574 Y42.3840 F120.00
G01 X35.7393 Y42.3800 F120.00
G01 X35.7437 Y42.3800 F120.00
G01 X35.8255 Y42.3840 F120.00
G01 X35.8299 Y42.3844 F120.00
G01 X35.9110 Y42.3965 F120.00
G01 X35.9153 Y42.3973 F120.00
G01 X35.9948 Y42.4172 F120.00
G01 X35.9990 Y42.4185 F120.00
G01 X36.0762 Y42.4461 F120.00
G01 X36.0803 Y42.4478 F120.00
G01 X36.1543 Y42.4829 F120.00
G01 X36.1582 Y42.4849 F120.00
G01 X36.2285 Y42.5271 F120.00
G01 X36.2322 Y42.5295 F120.00
G01 X36.2980 Y42.5783 F120.00
G01 X36.3014 Y42.5811 F120.00
G01 X36.3621 Y42.6362 F120.00
G01 X36.3653 Y42.6393 F120.00
G01 X36.4203 Y42.7000 F120.00
G01 X36.4231 Y42.7034 F120.00
G01 X36.4719 Y42.7692 F120.00
G01 X36.4744 Y42.7729 F120.00
G01 X36.5165 Y42.8432 F120.00
G01 X36.5186 Y42.8471 F120.00
G01 X36.5536 Y42.9211 F120.00
G01 X36.5829 Y43.0024 F120.00
G01 X36.5842 Y43.0066 F120.00
G01 X36.6041 Y43.0861 F120.00
G01 X36.6049 Y43.0904 F120.00
G01 X36.6170 Y43.1715 F120.00
G01 X36.6214 Y43.2577 F120.00
G01 X36.6174 Y43.3440 F120.00
G01 X36.6041 Y43.4338 F120.00
G01 X36.5842 Y43.5132 F120.00
G01 X36.5553 Y43.5946 F120.00
G01 X36.5536 Y43.5987 F120.00
G01 X36.5186 Y43.6728 F120.00
G01 X36.5165 Y43.6767 F120.00
G01 X36.4744 Y43.7469 F120.00
G01 X36.4719 Y43.7506 F120.00
G01 X36.4231 Y43.8164 F120.00
G01 X36.4203 Y43.8198 F120.00
G01 X36.3653 Y43.8806 F120.00
G01 X36.3621 Y43.8837 F120.00
G01 X36.3014 Y43.9387 F120.00
G01 X36.2980 Y43.9415 F120.00
G01 X36.2322 Y43.9903 F120.00
G01 X36.2285 Y43.9928 F120.00
G01 X36.1582 Y44.0349 F120.00
G01 X36.1543 Y44.0370 F120.00
G01 X36.0803 Y44.0720 F120.00
G01 X36.0762 Y44.0737 F120.00
G01 X35.9990 Y44.1013 F120.00
G01 X35.9948 Y44.1026 F120.00
G01 X35.9153 Y44.1225 F120.00
G01 X35.9110 Y44.1234 F120.00
G01 X35.8299 Y44.1354 F120.00
G01 X35.8255 Y44.1358 F120.00
G01 X35.7437 Y44.1398 F120.00
G01 X35.7393 Y44.1398 F120.00
G01 X35.6574 Y44.1358 F120.00
G01 X35.6531 Y44.1354 F120.00
G01 X35.5720 Y44.1234 F120.00
G01 X35.5677 Y44.1225 F120.00
G01 X35.4882 Y44.1026 F120.00
G01 X35.4840 Y44.1013 F120.00
G01 X35.4646 Y44.0944 F120.00
G01 X35.4646 Y42.4255 F120.00
G01 X35.4244 Y42.4398 F120.00
G01 X35.4244 Y44.0800 F120.00
G01 X35.3842 Y44.0632 F120.00
G01 X35.3842 Y42.4566 F120.00
G01 X35.3440 Y42.4756 F120.00
G01 X35.3440 Y44.0442 F120.00
G01 X35.3038 Y44.0223 F120.00
G01 X35.3038 Y42.4975 F120.00
G01 X35.2636 Y42.5216 F120.00
G01 X35.2636 Y43.9982 F120.00
G01 X35.2234 Y43.9700 F120.00
G01 X35.2234 Y42.5499 F120.00
G01 X35.1832 Y42.5798 F120.00
G01 X35.1832 Y43.9400 F120.00
G01 X35.1430 Y43.9037 F120.00
G01 X35.1430 Y42.6161 F120.00
G01 X35.1028 Y42.6558 F120.00
G01 X35.1028 Y43.8641 F120.00
G01 X35.0626 Y43.8197 F120.00
G01 X35.0626 Y42.7002 F120.00
G01 X35.0224 Y42.7540 F120.00
G01 X35.0224 Y43.7658 F120.00
M5
G00 X34.9822 Y43.7028
G01 F60.00
M03 S5000.0
G01 F120.00
G01 X34.9822 Y42.8171 F120.00
G01 X34.9420 Y42.8946 F120.00
G01 X34.9420 Y43.6253 F120.00
G01 X34.9018 Y43.5221 F120.00
G01 X34.9018 Y42.9977 F120.00
M5
G00 X34.0502 Y43.4893
G01 F60.00
M03 S5000.0
G01 F120.00
G01 X34.0502 Y43.0305 F120.00
G01 X34.0100 Y42.9135 F120.00
G01 X34.0100 Y43.6064 F120.00
G01 X33.9698 Y43.6879 F120.00
G01 X33.9698 Y42.8320 F120.00
G01 X33.9296 Y42.7661 F120.00
G01 X33.9296 Y43.7538 F120.00
G01 X33.8894 Y43.8080 F120.00
G01 X33.8894 Y42.7119 F120.00
G01 X33.8492 Y42.6657 F120.00
G01 X33.8492 Y43.8542 F120.00
G01 X33.8090 Y43.8956 F120.00
G01 X33.8090 Y42.6242 F120.00
G01 X33.7688 Y42.5878 F120.00
G01 X33.7688 Y43.9321 F120.00
G01 X33.7286 Y43.9634 F120.00
G01 X33.7286 Y42.5565 F120.00
G01 X33.6884 Y42.5270 F120.00
G01 X33.6884 Y43.9929 F120.00
G01 X33.6482 Y44.0170 F120.00
G01 X33.6482 Y42.5029 F120.00
G01 X33.6080 Y42.4798 F120.00
G01 X33.6080 Y44.0400 F120.00
G01 X33.5678 Y44.0590 F120.00
G01 X33.5678 Y42.4608 F120.00
G01 X33.5276 Y42.4430 F120.00
G01 X33.5276 Y44.0768 F120.00
G01 X33.4874 Y44.0912 F120.00
G01 X33.4874 Y42.4287 F120.00
G01 X33.4472 Y42.4153 F120.00
G01 X33.4472 Y44.1045 F120.00
G01 X33.4070 Y44.1146 F120.00
G01 X33.4070 Y42.4053 F120.00
G01 X33.3668 Y42.3958 F120.00
G01 X33.3668 Y44.1240 F120.00
G01 X33.3266 Y44.1300 F120.00
G01 X33.3266 Y42.3899 F120.00
G01 X33.2864 Y42.3841 F120.00
G01 X33.2864 Y44.1357 F120.00
G01 X33.2462 Y44.1378 F120.00
G01 X33.2462 Y42.3821 F120.00
G01 X33.2060 Y42.3801 F120.00
G01 X33.2060 Y44.1397 F120.00
G01 X33.1658 Y44.1382 F120.00
G01 X33.1658 Y42.3816 F120.00
G01 X33.1256 Y42.3836 F120.00
G01 X33.1256 Y44.1362 F120.00
G01 X33.0854 Y44.1313 F120.00
G01 X33.0854 Y42.3886 F120.00
G01 X33.0452 Y42.3945 F120.00
G01 X33.0452 Y44.1253 F120.00
G01 X33.0050 Y44.1168 F120.00
G01 X33.0050 Y42.4030 F120.00
G01 X32.9648 Y42.4131 F120.00
G01 X32.9648 Y44.1068 F120.00
G01 X32.9440 Y44.1013 F120.00
G01 X32.8668 Y44.0737 F120.00
G01 X32.8627 Y44.0720 F120.00
G01 X32.7886 Y44.0370 F120.00
G01 X32.7848 Y44.0349 F120.00
G01 X32.7145 Y43.9928 F120.00
G01 X32.7108 Y43.9903 F120.00
G01 X32.6450 Y43.9415 F120.00
G01 X32.6416 Y43.9387 F120.00
G01 X32.5809 Y43.8837 F120.00
G01 X32.5777 Y43.8806 F120.00
G01 X32.5227 Y43.8198 F120.00
G01 X32.5199 Y43.8164 F120.00
G01 X32.4711 Y43.7506 F120.00
G01 X32.4265 Y43.6767 F120.00
G01 X32.3877 Y43.5946 F120.00
G01 X32.3601 Y43.5175 F120.00
G01 X32.3389 Y43.4338 F120.00
G01 X32.3256 Y43.3440 F120.00
G01 X32.3216 Y43.2621 F120.00
G01 X32.3256 Y43.1759 F120.00
G01 X32.3380 Y43.0904 F120.00
G01 X32.3601 Y43.0024 F120.00
G01 X32.3877 Y42.9252 F120.00
G01 X32.4244 Y42.8471 F120.00
G01 X32.4686 Y42.7729 F120.00
G01 X32.4711 Y42.7692 F120.00
G01 X32.5199 Y42.7034 F120.00
G01 X32.5227 Y42.7000 F120.00
G01 X32.5777 Y42.6393 F120.00
G01 X32.5809 Y42.6362 F120.00
G01 X32.6416 Y42.5811 F120.00
G01 X32.6450 Y42.5783 F120.00
G01 X32.7108 Y42.5295 F120.00
G01 X32.7145 Y42.5271 F120.00
G01 X32.7848 Y42.4849 F120.00
G01 X32.7886 Y42.4829 F120.00
G01 X32.8627 Y42.4478 F120.00
G01 X32.8668 Y42.4461 F120.00
G01 X32.9440 Y42.4185 F120.00
G01 X32.9482 Y42.4172 F120.00
G01 X33.0277 Y42.3973 F120.00
G01 X33.0320 Y42.3965 F120.00
G01 X33.1131 Y42.3844 F120.00
G01 X33.1174 Y42.3840 F120.00
G01 X33.1993 Y42.3800 F120.00
G01 X33.2037 Y42.3800 F120.00
G01 X33.2855 Y42.3840 F120.00
G01 X33.2899 Y42.3844 F120.00
G01 X33.3710 Y42.3965 F120.00
G01 X33.3753 Y42.3973 F120.00
G01 X33.4548 Y42.4172 F120.00
G01 X33.4590 Y42.4185 F120.00
G01 X33.5362 Y42.4461 F120.00
G01 X33.5403 Y42.4478 F120.00
G01 X33.6143 Y42.4829 F120.00
G01 X33.6182 Y42.4849 F120.00
G01 X33.6885 Y42.5271 F120.00
G01 X33.6922 Y42.5295 F120.00
G01 X33.7580 Y42.5783 F120.00
G01 X33.7614 Y42.5811 F120.00
G01 X33.8221 Y42.6362 F120.00
G01 X33.8253 Y42.6393 F120.00
G01 X33.8803 Y42.7000 F120.00
G01 X33.8831 Y42.7034 F120.00
G01 X33.9319 Y42.7692 F120.00
G01 X33.9344 Y42.7729 F120.00
G01 X33.9765 Y42.8432 F120.00
G01 X33.9786 Y42.8471 F120.00
G01 X34.0136 Y42.9211 F120.00
G01 X34.0429 Y43.0024 F120.00
G01 X34.0442 Y43.0066 F120.00
G01 X34.0641 Y43.0861 F120.00
G01 X34.0649 Y43.0904 F120.00
G01 X34.0770 Y43.1715 F120.00
G01 X34.0814 Y43.2577 F120.00
G01 X34.0774 Y43.3440 F120.00
G01 X34.0641 Y43.4338 F120.00
G01 X34.0442 Y43.5132 F120.00
G01 X34.0153 Y43.5946 F120.00
G01 X34.0136 Y43.5987 F120.00
G01 X33.9786 Y43.6728 F120.00
G01 X33.9765 Y43.6767 F120.00
G01 X33.9344 Y43.7469 F120.00
G01 X33.9319 Y43.7506 F120.00
G01 X33.8831 Y43.8164 F120.00
G01 X33.8803 Y43.8198 F120.00
G01 X33.8253 Y43.8806 F120.00
G01 X33.8221 Y43.8837 F120.00
G01 X33.7614 Y43.9387 F120.00
G01 X33.7580 Y43.9415 F120.00
G01 X33.6922 Y43.9903 F120.00
G01 X33.6885 Y43.9928 F120.00
G01 X33.6182 Y44.0349 F120.00
G01 X33.6143 Y44.0370 F120.00
G01 X33.5403 Y44.0720 F120.00
G01 X33.5362 Y44.0737 F120.00
G01 X33.4590 Y44.1013 F120.00
G01 X33.4548 Y44.1026 F120.00
G01 X33.3753 Y44.1225 F120.00
G01 X33.3710 Y44.1234 F120.00
G01 X33.2899 Y44.1354 F120.00
G01 X33.2855 Y44.1358 F120.00
G01 X33.2037 Y44.1398 F120.00
G01 X33.1993 Y44.1398 F120.00
G01 X33.1174 Y44.1358 F120.00
G01 X33.1131 Y44.1354 F120.00
G01 X33.0320 Y44.1234 F120.00
G01 X33.0277 Y44.1225 F120.00
G01 X32.9482 Y44.1026 F120.00
G01 X32.9440 Y44.1013 F120.00
G01 X32.9246 Y44.0944 F120.00
G01 X32.9246 Y42.4255 F120.00
G01 X32.8844 Y42.4398 F120.00
G01 X32.8844 Y44.0800 F120.00
G01 X32.8442 Y44.0632 F120.00
G01 X32.8442 Y42.4566 F120.00
G01 X32.8040 Y42.4756 F120.00
G01 X32.8040 Y44.0442 F120.00
G01 X32.7638 Y44.0223 F120.00
G01 X32.7638 Y42.4975 F120.00
G01 X32.7236 Y42.5216 F120.00
G01 X32.7236 Y43.9982 F120.00
G01 X32.6834 Y43.9700 F120.00
G01 X32.6834 Y42.5499 F120.00
G01 X32.6432 Y42.5798 F120.00
G01 X32.6432 Y43.9400 F120.00
G01 X32.6030 Y43.9037 F120.00
G01 X32.6030 Y42.6161 F120.00
G01 X32.5628 Y42.6558 F120.00
G01 X32.5628 Y43.8641 F120.00
G01 X32.5226 Y43.8197 F120.00
G01 X32.5226 Y42.7002 F120.00
G01 X32.4824 Y42.7540 F120.00
G01 X32.4824 Y43.7658 F120.00
M5
G00 X32.4422 Y43.7028
G01 F60.00
M03 S5000.0
G01 F120.00
G01 X32.4422 Y42.8171 F120.00
G01 X32.4020 Y42.8946 F120.00
G01 X32.4020 Y43.6253 F120.00
G01 X32.3618 Y43.5221 F120.00
G01 X32.3618 Y42.9977 F120.00
M5
G00 X32.3618 Y45.5377
G01 F60.00
M03 S5000.0
G01 F120.00
G01 X32.3618 Y46.0621 F120.00
G01 X32.4020 Y46.1653 F120.00
G01 X32.4020 Y45.4346 F120.00
G01 X32.4422 Y45.3571 F120.00
G01 X32.4422 Y46.2428 F120.00
M5
G00 X32.4824 Y46.3058
G01 F60.00
M03 S5000.0
G01 F120.00
G01 X32.4824 Y45.2940 F120.00
G01 X32.5226 Y45.2402 F120.00
G01 X32.5226 Y46.3597 F120.00
G01 X32.5628 Y46.4041 F120.00
G01 X32.5628 Y45.1958 F120.00
G01 X32.6030 Y45.1561 F120.00
G01 X32.6030 Y46.4437 F120.00
G01 X32.6432 Y46.4800 F120.00
G01 X32.6432 Y45.1198 F120.00
G01 X32.6834 Y45.0899 F120.00
G01 X32.6834 Y46.5100 F120.00
G01 X32.7236 Y46.5382 F120.00
G01 X32.7236 Y45.0616 F120.00
G01 X32.7638 Y45.0375 F120.00
G01 X32.7638 Y46.5623 F120.00
G01 X32.8040 Y46.5842 F120.00
G01 X32.8040 Y45.0156 F120.00
G01 X32.8442 Y44.9966 F120.00
G01 X32.8442 Y46.6032 F120.00
G01 X32.8844 Y46.6200 F120.00
G01 X32.8844 Y44.9798 F120.00
G01 X32.9246 Y44.9655 F120.00
G01 X32.9246 Y46.6344 F120.00
G01 X32.9440 Y46.6413 F120.00
G01 X32.9482 Y46.6426 F120.00
G01 X33.0277 Y46.6625 F120.00
G01 X33.0320 Y46.6634 F120.00
G01 X33.1131 Y46.6754 F120.00
G01 X33.1174 Y46.6758 F120.00
G01 X33.1993 Y46.6798 F120.00
G01 X33.2037 Y46.6798 F120.00
G01 X33.2855 Y46.6758 F120.00
G01 X33.2899 Y46.6754 F120.00
G01 X33.3710 Y46.6634 F120.00
G01 X33.3753 Y46.6625 F120.00
G01 X33.4548 Y46.6426 F120.00
G01 X33.4590 Y46.6413 F120.00
G01 X33.5362 Y46.6137 F120.00
G01 X33.5403 Y46.6120 F120.00
G01 X33.6143 Y46.5770 F120.00
G01 X33.6182 Y46.5749 F120.00
G01 X33.6885 Y46.5328 F120.00
G01 X33.6922 Y46.5303 F120.00
G01 X33.7580 Y46.4815 F120.00
G01 X33.7614 Y46.4787 F120.00
G01 X33.8221 Y46.4237 F120.00
G01 X33.8253 Y46.4206 F120.00
G01 X33.8803 Y46.3598 F120.00
G01 X33.8831 Y46.3564 F120.00
G01 X33.9319 Y46.2906 F120.00
G01 X33.9344 Y46.2869 F120.00
G01 X33.9765 Y46.2167 F120.00
G01 X33.9786 Y46.2128 F120.00
G01 X34.0136 Y46.1387 F120.00
G01 X34.0153 Y46.1346 F120.00
G01 X34.0442 Y46.0532 F120.00
G01 X34.0641 Y45.9738 F120.00
G01 X34.0774 Y45.8840 F120.00
G01 X34.0814 Y45.7977 F120.00
G01 X34.0770 Y45.7115 F120.00
G01 X34.0649 Y45.6304 F120.00
G01 X34.0641 Y45.6261 F120.00
G01 X34.0442 Y45.5466 F120.00
G01 X34.0429 Y45.5424 F120.00
G01 X34.0136 Y45.4611 F120.00
G01 X33.9786 Y45.3871 F120.00
G01 X33.9765 Y45.3832 F120.00
G01 X33.9344 Y45.3129 F120.00
G01 X33.9319 Y45.3092 F120.00
G01 X33.8831 Y45.2434 F120.00
G01 X33.8803 Y45.2400 F120.00
G01 X33.8253 Y45.1793 F120.00
G01 X33.8221 Y45.1762 F120.00
G01 X33.7614 Y45.1211 F120.00
G01 X33.7580 Y45.1183 F120.00
G01 X33.6922 Y45.0695 F120.00
G01 X33.6885 Y45.0671 F120.00
G01 X33.6182 Y45.0249 F120.00
G01 X33.6143 Y45.0229 F120.00
G01 X33.5403 Y44.9878 F120.00
G01 X33.5362 Y44.9861 F120.00
G01 X33.4590 Y44.9585 F120.00
G01 X33.4548 Y44.9572 F120.00
G01 X33.3753 Y44.9373 F120.00
G01 X33.3710 Y44.9365 F120.00
G01 X33.2899 Y44.9244 F120.00
G01 X33.2855 Y44.9240 F120.00
G01 X33.2037 Y44.9200 F120.00
G01 X33.1993 Y44.9200 F120.00
G01 X33.1174 Y44.9240 F120.00
G01 X33.1131 Y44.9244 F120.00
G01 X33.0320 Y44.9365 F120.00
G01 X33.0277 Y44.9373 F120.00
G01 X32.9482 Y44.9572 F120.00
G01 X32.9440 Y44.9585 F120.00
G01 X32.8668 Y44.9861 F120.00
G01 X32.8627 Y44.9878 F120.00
G01 X32.7886 Y45.0229 F120.00
G01 X32.7848 Y45.0249 F120.00
G01 X32.7145 Y45.0671 F120.00
G01 X32.7108 Y45.0695 F120.00
G01 X32.6450 Y45.1183 F120.00
G01 X32.6416 Y45.1211 F120.00
G01 X32.5809 Y45.1762 F120.00
G01 X32.5777 Y45.1793 F120.00
G01 X32.5227 Y45.2400 F120.00
G01 X32.5199 Y45.2434 F120.00
G01 X32.4711 Y45.3092 F120.00
G01 X32.4686 Y45.3129 F120.00
G01 X32.4244 Y45.3871 F120.00
G01 X32.3877 Y45.4652 F120.00
G01 X32.3601 Y45.5424 F120.00
G01 X32.3380 Y45.6304 F120.00
G01 X32.3256 Y45.7159 F120.00
G01 X32.3216 Y45.8021 F120.00
G01 X32.3256 Y45.8840 F120.00
G01 X32.3389 Y45.9738 F120.00
G01 X32.3601 Y46.0575 F120.00
G01 X32.3877 Y46.1346 F120.00
G01 X32.4265 Y46.2167 F120.00
G01 X32.4711 Y46.2906 F120.00
G01 X32.5199 Y46.3564 F120.00
G01 X32.5227 Y46.3598 F120.00
G01 X32.5777 Y46.4206 F120.00
G01 X32.5809 Y46.4237 F120.00
G01 X32.6416 Y46.4787 F120.00
G01 X32.6450 Y46.4815 F120.00
G01 X32.7108 Y46.5303 F120.00
G01 X32.7145 Y46.5328 F120.00
G01 X32.7848 Y46.5749 F120.00
G01 X32.7886 Y46.5770 F120.00
G01 X32.8627 Y46.6120 F120.00
G01 X32.8668 Y46.6137 F120.00
G01 X32.9440 Y46.6413 F120.00
G01 X32.9648 Y46.6468 F120.00
G01 X32.9648 Y44.9531 F120.00
G01 X33.0050 Y44.9430 F120.00
G01 X33.0050 Y46.6568 F120.00
G01 X33.0452 Y46.6653 F120.00
G01 X33.0452 Y44.9345 F120.00
G01 X33.0854 Y44.9286 F120.00
G01 X33.0854 Y46.6713 F120.00
G01 X33.1256 Y46.6762 F120.00
G01 X33.1256 Y44.9236 F120.00
G01 X33.1658 Y44.9216 F120.00
G01 X33.1658 Y46.6782 F120.00
G01 X33.2060 Y46.6797 F120.00
G01 X33.2060 Y44.9201 F120.00
G01 X33.2462 Y44.9221 F120.00
G01 X33.2462 Y46.6778 F120.00
G01 X33.2864 Y46.6757 F120.00
G01 X33.2864 Y44.9241 F120.00
G01 X33.3266 Y44.9299 F120.00
G01 X33.3266 Y46.6700 F120.00
G01 X33.3668 Y46.6640 F120.00
G01 X33.3668 Y44.9358 F120.00
G01 X33.4070 Y44.9453 F120.00
G01 X33.4070 Y46.6546 F120.00
G01 X33.4472 Y46.6445 F120.00
G01 X33.4472 Y44.9553 F120.00
G01 X33.4874 Y44.9687 F120.00
G01 X33.4874 Y46.6312 F120.00
G01 X33.5276 Y46.6168 F120.00
G01 X33.5276 Y44.9830 F120.00
G01 X33.5678 Y45.0008 F120.00
G01 X33.5678 Y46.5990 F120.00
G01 X33.6080 Y46.5800 F120.00
G01 X33.6080 Y45.0198 F120.00
G01 X33.6482 Y45.0429 F120.00
G01 X33.6482 Y46.5570 F120.00
G01 X33.6884 Y46.5329 F120.00
G01 X33.6884 Y45.0670 F120.00
G01 X33.7286 Y45.0965 F120.00
G01 X33.7286 Y46.5034 F120.00
G01 X33.7688 Y46.4721 F120.00
G01 X33.7688 Y45.1278 F120.00
G01 X33.8090 Y45.1642 F120.00
G01 X33.8090 Y46.4356 F120.00
G01 X33.8492 Y46.3942 F120.00
G01 X33.8492 Y45.2057 F120.00
G01 X33.8894 Y45.2519 F120.00
G01 X33.8894 Y46.3480 F120.00
G01 X33.9296 Y46.2938 F120.00
G01 X33.9296 Y45.3061 F120.00
G01 X33.9698 Y45.3720 F120.00
G01 X33.9698 Y46.2279 F120.00
G01 X34.0100 Y46.1464 F120.00
G01 X34.0100 Y45.4535 F120.00
G01 X34.0502 Y45.5705 F120.00
G01 X34.0502 Y46.0293 F120.00
M5
G00 X34.9822 Y46.2428
G01 F60.00
M03 S5000.0
G01 F120.00
G01 X34.9822 Y45.3571 F120.00
G01 X34.9420 Y45.4346 F120.00
G01 X34.9420 Y46.1653 F120.00
G01 X34.9018 Y46.0621 F120.00
G01 X34.9018 Y45.5377 F120.00
M5
G00 X35.0224 Y46.3058
G01 F60.00
M03 S5000.0
G01 F120.00
G01 X35.0224 Y45.2940 F120.00
G01 X35.0626 Y45.2402 F120.00
G01 X35.0626 Y46.3597 F120.00
G01 X35.1028 Y46.4041 F120.00
G01 X35.1028 Y45.1958 F120.00
G01 X35.1430 Y45.1561 F120.00
G01 X35.1430 Y46.4437 F120.00
G01 X35.1832 Y46.4800 F120.00
G01 X35.1832 Y45.1198 F120.00
G01 X35.2234 Y45.0899 F120.00
G01 X35.2234 Y46.5100 F120.00
G01 X35.2636 Y46.5382 F120.00
G01 X35.2636 Y45.0616 F120.00
G01 X35.3038 Y45.0375 F120.00
G01 X35.3038 Y46.5623 F120.00
G01 X35.3440 Y46.5842 F120.00
G01 X35.3440 Y45.0156 F120.00
G01 X35.3842 Y44.9966 F120.00
G01 X35.3842 Y46.6032 F120.00
G01 X35.4244 Y46.6200 F120.00
G01 X35.4244 Y44.9798 F120.00
G01 X35.4646 Y44.9655 F120.00
G01 X35.4646 Y46.6344 F120.00
G01 X35.4840 Y46.6413 F120.00
G01 X35.4882 Y46.6426 F120.00
G01 X35.5677 Y46.6625 F120.00
G01 X35.5720 Y46.6634 F120.00
G01 X35.6531 Y46.6754 F120.00
G01 X35.6574 Y46.6758 F120.00
G01 X35.7393 Y46.6798 F120.00
G01 X35.7437 Y46.6798 F120.00
G01 X35.8255 Y46.6758 F120.00
G01 X35.8299 Y46.6754 F120.00
G01 X35.9110 Y46.6634 F120.00
G01 X35.9153 Y46.6625 F120.00
G01 X35.9948 Y46.6426 F120.00
G01 X35.9990 Y46.6413 F120.00
G01 X36.0762 Y46.6137 F120.00
G01 X36.0803 Y46.6120 F120.00
G01 X36.1543 Y46.5770 F120.00
G01 X36.1582 Y46.5749 F120.00
G01 X36.2285 Y46.5328 F120.00
G01 X36.2322 Y46.5303 F120.00
G01 X36.2980 Y46.4815 F120.00
G01 X36.3014 Y46.4787 F120.00
G01 X36.3621 Y46.4237 F120.00
G01 X36.3653 Y46.4206 F120.00
G01 X36.4203 Y46.3598 F120.00
G01 X36.4231 Y46.3564 F120.00
G01 X36.4719 Y46.2906 F120.00
G01 X36.4744 Y46.2869 F120.00
G01 X36.5165 Y46.2167 F120.00
G01 X36.5186 Y46.2128 F120.00
G01 X36.5536 Y46.1387 F120.00
G01 X36.5553 Y46.1346 F120.00
G01 X36.5842 Y46.0532 F120.00
G01 X36.6041 Y45.9738 F120.00
G01 X36.6174 Y45.8840 F120.00
G01 X36.6214 Y45.7977 F120.00
G01 X36.6170 Y45.7115 F120.00
G01 X36.6049 Y45.6304 F120.00
G01 X36.6041 Y45.6261 F120.00
G01 X36.5842 Y45.5466 F120.00
G01 X36.5829 Y45.5424 F120.00
G01 X36.5536 Y45.4611 F120.00
G01 X36.5186 Y45.3871 F120.00
G01 X36.5165 Y45.3832 F120.00
G01 X36.4744 Y45.3129 F120.00
G01 X36.4719 Y45.3092 F120.00
G01 X36.4231 Y45.2434 F120.00
G01 X36.4203 Y45.2400 F120.00
G01 X36.3653 Y45.1793 F120.00
G01 X36.3621 Y45.1762 F120.00
G01 X36.3014 Y45.1211 F120.00
G01 X36.2980 Y45.1183 F120.00
G01 X36.2322 Y45.0695 F120.00
G01 X36.2285 Y45.0671 F120.00
G01 X36.1582 Y45.0249 F120.00
G01 X36.1543 Y45.0229 F120.00
G01 X36.0803 Y44.9878 F120.00
G01 X36.0762 Y44.9861 F120.00
G01 X35.9990 Y44.9585 F120.00
G01 X35.9948 Y44.9572 F120.00
G01 X35.9153 Y44.9373 F120.00
G01 X35.9110 Y44.9365 F120.00
G01 X35.8299 Y44.9244 F120.00
G01 X35.8255 Y44.9240 F120.00
G01 X35.7437 Y44.9200 F120.00
G01 X35.7393 Y44.9200 F120.00
G01 X35.6574 Y44.9240 F120.00
G01 X35.6531 Y44.9244 F120.00
G01 X35.5720 Y44.9365 F120.00
G01 X35.5677 Y44.9373 F120.00
G01 X35.4882 Y44.9572 F120.00
G01 X35.4840 Y44.9585 F120.00
G01 X35.4068 Y44.9861 F120.00
G01 X35.4027 Y44.9878 F120.00
G01 X35.3286 Y45.0229 F120.00
G01 X35.3248 Y45.0249 F120.00
G01 X35.2545 Y45.0671 F120.00
G01 X35.2508 Y45.0695 F120.00
G01 X35.1850 Y45.1183 F120.00
G01 X35.1816 Y45.1211 F120.00
G01 X35.1209 Y45.1762 F120.00
G01 X35.1177 Y45.1793 F120.00
G01 X35.0627 Y45.2400 F120.00
G01 X35.0599 Y45.2434 F120.00
G01 X35.0111 Y45.3092 F120.00
G01 X35.0086 Y45.3129 F120.00
G01 X34.9644 Y45.3871 F120.00
G01 X34.9277 Y45.4652 F120.00
G01 X34.9001 Y45.5424 F120.00
G01 X34.8780 Y45.6304 F120.00
G01 X34.8656 Y45.7159 F120.00
G01 X34.8616 Y45.8021 F120.00
G01 X34.8656 Y45.8840 F120.00
G01 X34.8789 Y45.9738 F120.00
G01 X34.9001 Y46.0575 F120.00
G01 X34.9277 Y46.1346 F120.00
G01 X34.9665 Y46.2167 F120.00
G01 X35.0111 Y46.2906 F120.00
G01 X35.0599 Y46.3564 F120.00
G01 X35.0627 Y46.3598 F120.00
G01 X35.1177 Y46.4206 F120.00
G01 X35.1209 Y46.4237 F120.00
G01 X35.1816 Y46.4787 F120.00
G01 X35.1850 Y46.4815 F120.00
G01 X35.2508 Y46.5303 F120.00
G01 X35.2545 Y46.5328 F120.00
G01 X35.3248 Y46.5749 F120.00
G01 X35.3286 Y46.5770 F120.00
G01 X35.4027 Y46.6120 F120.00
G01 X35.4068 Y46.6137 F120.00
G01 X35.4840 Y46.6413 F120.00
G01 X35.5048 Y46.6468 F120.00
G01 X35.5048 Y44.9531 F120.00
G01 X35.5450 Y44.9430 F120.00
G01 X35.5450 Y46.6568 F120.00
G01 X35.5852 Y46.6653 F120.00
G01 X35.5852 Y44.9345 F120.00
G01 X35.6254 Y44.9286 F120.00
G01 X35.6254 Y46.6713 F120.00
G01 X35.6656 Y46.6762 F120.00
G01 X35.6656 Y44.9236 F120.00
G01 X35.7058 Y44.9216 F120.00
G01 X35.7058 Y46.6782 F120.00
G01 X35.7460 Y46.6797 F120.00
G01 X35.7460 Y44.9201 F120.00
G01 X35.7862 Y44.9221 F120.00
G01 X35.7862 Y46.6778 F120.00
G01 X35.8264 Y46.6757 F120.00
G01 X35.8264 Y44.9241 F120.00
G01 X35.8666 Y44.9299 F120.00
G01 X35.8666 Y46.6700 F120.00
G01 X35.9068 Y46.6640 F120.00
G01 X35.9068 Y44.9358 F120.00
G01 X35.9470 Y44.9453 F120.00
G01 X35.9470 Y46.6546 F120.00
G01 X35.9872 Y46.6445 F120.00
G01 X35.9872 Y44.9553 F120.00
G01 X36.0274 Y44.9687 F120.00
G01 X36.0274 Y46.6312 F120.00
G01 X36.0676 Y46.6168 F120.00
G01 X36.0676 Y44.9830 F120.00
G01 X36.1078 Y45.0008 F120.00
G01 X36.1078 Y46.5990 F120.00
G01 X36.1480 Y46.5800 F120.00
G01 X36.1480 Y45.0198 F120.00
G01 X36.1882 Y45.0429 F120.00
G01 X36.1882 Y46.5570 F120.00
G01 X36.2284 Y46.5329 F120.00
G01 X36.2284 Y45.0670 F120.00
G01 X36.2686 Y45.0965 F120.00
G01 X36.2686 Y46.5034 F120.00
G01 X36.3088 Y46.4721 F120.00
G01 X36.3088 Y45.1278 F120.00
G01 X36.3490 Y45.1642 F120.00
G01 X36.3490 Y46.4356 F120.00
G01 X36.3892 Y46.3942 F120.00
G01 X36.3892 Y45.2057 F120.00
G01 X36.4294 Y45.2519 F120.00
G01 X36.4294 Y46.3480 F120.00
G01 X36.4696 Y46.2938 F120.00
G01 X36.4696 Y45.3061 F120.00
G01 X36.5098 Y45.3720 F120.00
G01 X36.5098 Y46.2279 F120.00
G01 X36.5500 Y46.1464 F120.00
G01 X36.5500 Y45.4535 F120.00
G01 X36.5902 Y45.5705 F120.00
G01 X36.5902 Y46.0293 F120.00
M5
G00 X36.4701 Y47.4913
G01 F60.00
M03 S5000.0
G01 F120.00
G01 X35.0129 Y47.4913 F120.00
G01 X34.9549 Y47.5315 F120.00
G01 X36.5281 Y47.5315 F120.00
G01 X36.5650 Y47.5717 F120.00
G01 X34.9180 Y47.5717 F120.00
G01 X34.8926 Y47.6119 F120.00
G01 X36.5904 Y47.6119 F120.00
G01 X36.6071 Y47.6521 F120.00
G01 X34.8758 Y47.6521 F120.00
G01 X34.8658 Y47.6923 F120.00
G01 X36.6172 Y47.6923 F120.00
G01 X36.6212 Y47.7325 F120.00
G01 X34.8618 Y47.7325 F120.00
G01 X34.8615 Y47.7727 F120.00
G01 X36.6215 Y47.7727 F120.00
G01 X36.6215 Y47.8129 F120.00
G01 X34.8615 Y47.8129 F120.00
G01 X34.8615 Y47.8531 F120.00
G01 X36.6215 Y47.8531 F120.00
G01 X36.6215 Y47.8933 F120.00
G01 X34.8615 Y47.8933 F120.00
G01 X34.8615 Y47.9335 F120.00
G01 X36.6215 Y47.9335 F120.00
G01 X36.6215 Y47.9737 F120.00
G01 X34.8615 Y47.9737 F120.00
G01 X34.8615 Y48.0139 F120.00
G01 X36.6215 Y48.0139 F120.00
G01 X36.6215 Y48.0541 F120.00
G01 X34.8615 Y48.0541 F120.00
G01 X34.8615 Y48.0943 F120.00
G01 X36.6215 Y48.0943 F120.00
G01 X36.6215 Y48.1345 F120.00
G01 X34.8615 Y48.1345 F120.00
G01 X34.8615 Y48.1747 F120.00
G01 X36.6215 Y48.1747 F120.00
G01 X36.6215 Y48.2149 F120.00
G01 X34.8615 Y48.2149 F120.00
G01 X34.8615 Y48.2551 F120.00
G01 X36.6215 Y48.2551 F120.00
G01 X36.6215 Y48.2953 F120.00
G01 X34.8615 Y48.2953 F120.00
G01 X34.8615 Y48.3355 F120.00
G01 X36.6215 Y48.3355 F120.00
G01 X36.6215 Y48.3757 F120.00
G01 X34.8615 Y48.3757 F120.00
G01 X34.8615 Y48.4159 F120.00
G01 X36.6215 Y48.4159 F120.00
G01 X36.6215 Y48.4561 F120.00
G01 X34.8615 Y48.4561 F120.00
G01 X34.8615 Y48.4963 F120.00
G01 X36.6215 Y48.4963 F120.00
G01 X36.6215 Y48.5365 F120.00
G01 X34.8615 Y48.5365 F120.00
G01 X34.8615 Y48.5767 F120.00
G01 X36.6215 Y48.5767 F120.00
G01 X36.6215 Y48.6169 F120.00
G01 X34.8615 Y48.6169 F120.00
G01 X34.8615 Y48.6571 F120.00
G01 X36.6215 Y48.6571 F120.00
G01 X36.6215 Y48.6973 F120.00
G01 X34.8615 Y48.6973 F120.00
G01 X34.8615 Y48.7375 F120.00
G01 X36.6215 Y48.7375 F120.00
G01 X36.6215 Y48.7777 F120.00
G01 X34.8615 Y48.7777 F120.00
G01 X34.8615 Y48.8179 F120.00
G01 X36.6215 Y48.8179 F120.00
G01 X36.6215 Y48.8581 F120.00
G01 X34.8615 Y48.8581 F120.00
G01 X34.8615 Y48.8983 F120.00
G01 X36.6215 Y48.8983 F120.00
G01 X36.6215 Y48.9385 F120.00
G01 X34.8615 Y48.9385 F120.00
G01 X34.8645 Y48.9787 F120.00
G01 X36.6185 Y48.9787 F120.00
G01 X36.6100 Y49.0189 F120.00
G01 X34.8729 Y49.0189 F120.00
G01 X34.8885 Y49.0591 F120.00
G01 X36.5945 Y49.0591 F120.00
G01 X36.5715 Y49.0993 F120.00
G01 X34.9115 Y49.0993 F120.00
M5
G00 X36.5378 Y49.1395
G01 F60.00
M03 S5000.0
G01 F120.00
G01 X34.9452 Y49.1395 F120.00
G01 X34.9975 Y49.1797 F120.00
G01 X36.4855 Y49.1797 F120.00
M5
G00 X35.0581 Y49.2072
G01 F60.00
M03 S5000.0
G01 F120.00
G01 X35.0891 Y49.2149 F120.00
G01 X35.1163 Y49.2187 F120.00
G01 X35.1419 Y49.2199 F120.00
G01 X36.3411 Y49.2199 F120.00
G01 X36.3667 Y49.2187 F120.00
G01 X36.3939 Y49.2149 F120.00
G01 X36.4206 Y49.2084 F120.00
G01 X36.4466 Y49.1994 F120.00
G01 X36.4715 Y49.1878 F120.00
G01 X36.4952 Y49.1739 F120.00
G01 X36.5174 Y49.1577 F120.00
G01 X36.5379 Y49.1394 F120.00
G01 X36.5565 Y49.1192 F120.00
G01 X36.5755 Y49.0936 F120.00
G01 X36.5894 Y49.0699 F120.00
G01 X36.6010 Y49.0450 F120.00
G01 X36.6100 Y49.0191 F120.00
G01 X36.6165 Y48.9924 F120.00
G01 X36.6203 Y48.9652 F120.00
G01 X36.6214 Y48.9418 F120.00
G01 X36.6215 Y47.7403 F120.00
G01 X36.6199 Y47.7103 F120.00
G01 X36.6156 Y47.6831 F120.00
G01 X36.6087 Y47.6566 F120.00
G01 X36.5993 Y47.6308 F120.00
G01 X36.5873 Y47.6060 F120.00
G01 X36.5730 Y47.5826 F120.00
G01 X36.5565 Y47.5606 F120.00
G01 X36.5379 Y47.5404 F120.00
G01 X36.5208 Y47.5249 F120.00
G01 X36.4952 Y47.5059 F120.00
G01 X36.4715 Y47.4920 F120.00
G01 X36.4466 Y47.4805 F120.00
G01 X36.4206 Y47.4714 F120.00
G01 X36.3939 Y47.4649 F120.00
G01 X36.3667 Y47.4611 F120.00
G01 X36.3433 Y47.4600 F120.00
G01 X35.1419 Y47.4599 F120.00
G01 X35.1119 Y47.4616 F120.00
G01 X35.0847 Y47.4658 F120.00
G01 X35.0581 Y47.4727 F120.00
G01 X35.0323 Y47.4821 F120.00
G01 X35.0076 Y47.4941 F120.00
G01 X34.9841 Y47.5084 F120.00
G01 X34.9622 Y47.5249 F120.00
G01 X34.9420 Y47.5435 F120.00
G01 X34.9265 Y47.5606 F120.00
G01 X34.9075 Y47.5862 F120.00
G01 X34.8936 Y47.6099 F120.00
G01 X34.8820 Y47.6348 F120.00
G01 X34.8730 Y47.6608 F120.00
G01 X34.8665 Y47.6875 F120.00
G01 X34.8627 Y47.7147 F120.00
G01 X34.8616 Y47.7381 F120.00
G01 X34.8615 Y48.9396 F120.00
G01 X34.8627 Y48.9652 F120.00
G01 X34.8674 Y48.9967 F120.00
G01 X34.8743 Y49.0233 F120.00
G01 X34.8820 Y49.0450 F120.00
G01 X34.8957 Y49.0738 F120.00
G01 X34.9100 Y49.0973 F120.00
G01 X34.9237 Y49.1158 F120.00
G01 X34.9451 Y49.1394 F120.00
G01 X34.9656 Y49.1577 F120.00
G01 X34.9841 Y49.1714 F120.00
G01 X35.0115 Y49.1878 F120.00
G01 X35.0364 Y49.1994 F120.00
G01 X35.0581 Y49.2072 F120.00
M5
G00 X34.0502 Y48.5693
G01 F60.00
M03 S5000.0
G01 F120.00
G01 X34.0502 Y48.1105 F120.00
G01 X34.0100 Y47.9935 F120.00
G01 X34.0100 Y48.6864 F120.00
G01 X33.9698 Y48.7679 F120.00
G01 X33.9698 Y47.9120 F120.00
G01 X33.9296 Y47.8461 F120.00
G01 X33.9296 Y48.8338 F120.00
G01 X33.8894 Y48.8880 F120.00
G01 X33.8894 Y47.7919 F120.00
G01 X33.8492 Y47.7457 F120.00
G01 X33.8492 Y48.9342 F120.00
G01 X33.8090 Y48.9756 F120.00
G01 X33.8090 Y47.7042 F120.00
G01 X33.7688 Y47.6678 F120.00
G01 X33.7688 Y49.0121 F120.00
G01 X33.7286 Y49.0434 F120.00
G01 X33.7286 Y47.6365 F120.00
G01 X33.6884 Y47.6070 F120.00
G01 X33.6884 Y49.0729 F120.00
G01 X33.6482 Y49.0970 F120.00
G01 X33.6482 Y47.5829 F120.00
G01 X33.6080 Y47.5598 F120.00
G01 X33.6080 Y49.1200 F120.00
G01 X33.5678 Y49.1390 F120.00
G01 X33.5678 Y47.5408 F120.00
G01 X33.5276 Y47.5230 F120.00
G01 X33.5276 Y49.1568 F120.00
G01 X33.4874 Y49.1712 F120.00
G01 X33.4874 Y47.5087 F120.00
G01 X33.4472 Y47.4953 F120.00
G01 X33.4472 Y49.1845 F120.00
G01 X33.4070 Y49.1946 F120.00
G01 X33.4070 Y47.4853 F120.00
G01 X33.3668 Y47.4758 F120.00
G01 X33.3668 Y49.2040 F120.00
G01 X33.3266 Y49.2100 F120.00
G01 X33.3266 Y47.4699 F120.00
G01 X33.2864 Y47.4641 F120.00
G01 X33.2864 Y49.2157 F120.00
G01 X33.2462 Y49.2178 F120.00
G01 X33.2462 Y47.4621 F120.00
G01 X33.2060 Y47.4601 F120.00
G01 X33.2060 Y49.2197 F120.00
G01 X33.1658 Y49.2182 F120.00
G01 X33.1658 Y47.4616 F120.00
G01 X33.1256 Y47.4636 F120.00
G01 X33.1256 Y49.2162 F120.00
G01 X33.0854 Y49.2113 F120.00
G01 X33.0854 Y47.4686 F120.00
G01 X33.0452 Y47.4745 F120.00
G01 X33.0452 Y49.2053 F120.00
G01 X33.0050 Y49.1968 F120.00
G01 X33.0050 Y47.4830 F120.00
G01 X32.9648 Y47.4931 F120.00
G01 X32.9648 Y49.1868 F120.00
G01 X32.9440 Y49.1813 F120.00
G01 X32.8668 Y49.1537 F120.00
G01 X32.8627 Y49.1520 F120.00
G01 X32.7886 Y49.1170 F120.00
G01 X32.7848 Y49.1149 F120.00
G01 X32.7145 Y49.0728 F120.00
G01 X32.7108 Y49.0703 F120.00
G01 X32.6450 Y49.0215 F120.00
G01 X32.6416 Y49.0187 F120.00
G01 X32.5809 Y48.9637 F120.00
G01 X32.5777 Y48.9606 F120.00
G01 X32.5227 Y48.8998 F120.00
G01 X32.5199 Y48.8964 F120.00
G01 X32.4711 Y48.8306 F120.00
G01 X32.4265 Y48.7567 F120.00
G01 X32.3877 Y48.6746 F120.00
G01 X32.3601 Y48.5975 F120.00
G01 X32.3389 Y48.5138 F120.00
G01 X32.3256 Y48.4240 F120.00
G01 X32.3216 Y48.3421 F120.00
G01 X32.3256 Y48.2559 F120.00
G01 X32.3380 Y48.1704 F120.00
G01 X32.3601 Y48.0824 F120.00
G01 X32.3877 Y48.0052 F120.00
G01 X32.4244 Y47.9271 F120.00
G01 X32.4686 Y47.8529 F120.00
G01 X32.4711 Y47.8492 F120.00
G01 X32.5199 Y47.7834 F120.00
G01 X32.5227 Y47.7800 F120.00
G01 X32.5777 Y47.7193 F120.00
G01 X32.5809 Y47.7162 F120.00
G01 X32.6416 Y47.6611 F120.00
G01 X32.6450 Y47.6583 F120.00
G01 X32.7108 Y47.6095 F120.00
G01 X32.7145 Y47.6071 F120.00
G01 X32.7848 Y47.5649 F120.00
G01 X32.7886 Y47.5629 F120.00
G01 X32.8627 Y47.5278 F120.00
G01 X32.8668 Y47.5261 F120.00
G01 X32.9440 Y47.4985 F120.00
G01 X32.9482 Y47.4972 F120.00
G01 X33.0277 Y47.4773 F120.00
G01 X33.0320 Y47.4765 F120.00
G01 X33.1131 Y47.4644 F120.00
G01 X33.1174 Y47.4640 F120.00
G01 X33.1993 Y47.4600 F120.00
G01 X33.2037 Y47.4600 F120.00
G01 X33.2855 Y47.4640 F120.00
G01 X33.2899 Y47.4644 F120.00
G01 X33.3710 Y47.4765 F120.00
G01 X33.3753 Y47.4773 F120.00
G01 X33.4548 Y47.4972 F120.00
G01 X33.4590 Y47.4985 F120.00
G01 X33.5362 Y47.5261 F120.00
G01 X33.5403 Y47.5278 F120.00
G01 X33.6143 Y47.5629 F120.00
G01 X33.6182 Y47.5649 F120.00
G01 X33.6885 Y47.6071 F120.00
G01 X33.6922 Y47.6095 F120.00
G01 X33.7580 Y47.6583 F120.00
G01 X33.7614 Y47.6611 F120.00
G01 X33.8221 Y47.7162 F120.00
G01 X33.8253 Y47.7193 F120.00
G01 X33.8803 Y47.7800 F120.00
G01 X33.8831 Y47.7834 F120.00
G01 X33.9319 Y47.8492 F120.00
G01 X33.9344 Y47.8529 F120.00
G01 X33.9765 Y47.9232 F120.00
G01 X33.9786 Y47.9271 F120.00
G01 X34.0136 Y48.0011 F120.00
G01 X34.0429 Y48.0824 F120.00
G01 X34.0442 Y48.0866 F120.00
G01 X34.0641 Y48.1661 F120.00
G01 X34.0649 Y48.1704 F120.00
G01 X34.0770 Y48.2515 F120.00
G01 X34.0814 Y48.3377 F120.00
G01 X34.0774 Y48.4240 F120.00
G01 X34.0641 Y48.5138 F120.00
G01 X34.0442 Y48.5932 F120.00
G01 X34.0153 Y48.6746 F120.00
G01 X34.0136 Y48.6787 F120.00
G01 X33.9786 Y48.7528 F120.00
G01 X33.9765 Y48.7567 F120.00
G01 X33.9344 Y48.8269 F120.00
G01 X33.9319 Y48.8306 F120.00
G01 X33.8831 Y48.8964 F120.00
G01 X33.8803 Y48.8998 F120.00
G01 X33.8253 Y48.9606 F120.00
G01 X33.8221 Y48.9637 F120.00
G01 X33.7614 Y49.0187 F120.00
G01 X33.7580 Y49.0215 F120.00
G01 X33.6922 Y49.0703 F120.00
G01 X33.6885 Y49.0728 F120.00
G01 X33.6182 Y49.1149 F120.00
G01 X33.6143 Y49.1170 F120.00
G01 X33.5403 Y49.1520 F120.00
G01 X33.5362 Y49.1537 F120.00
G01 X33.4590 Y49.1813 F120.00
G01 X33.4548 Y49.1826 F120.00
G01 X33.3753 Y49.2025 F120.00
G01 X33.3710 Y49.2034 F120.00
G01 X33.2899 Y49.2154 F120.00
G01 X33.2855 Y49.2158 F120.00
G01 X33.2037 Y49.2198 F120.00
G01 X33.1993 Y49.2198 F120.00
G01 X33.1174 Y49.2158 F120.00
G01 X33.1131 Y49.2154 F120.00
G01 X33.0320 Y49.2034 F120.00
G01 X33.0277 Y49.2025 F120.00
G01 X32.9482 Y49.1826 F120.00
G01 X32.9440 Y49.1813 F120.00
G01 X32.9246 Y49.1744 F120.00
G01 X32.9246 Y47.5055 F120.00
G01 X32.8844 Y47.5198 F120.00
G01 X32.8844 Y49.1600 F120.00
G01 X32.8442 Y49.1432 F120.00
G01 X32.8442 Y47.5366 F120.00
G01 X32.8040 Y47.5556 F120.00
G01 X32.8040 Y49.1242 F120.00
G01 X32.7638 Y49.1023 F120.00
G01 X32.7638 Y47.5775 F120.00
G01 X32.7236 Y47.6016 F120.00
G01 X32.7236 Y49.0782 F120.00
G01 X32.6834 Y49.0500 F120.00
G01 X32.6834 Y47.6299 F120.00
G01 X32.6432 Y47.6598 F120.00
G01 X32.6432 Y49.0200 F120.00
G01 X32.6030 Y48.9837 F120.00
G01 X32.6030 Y47.6961 F120.00
G01 X32.5628 Y47.7358 F120.00
G01 X32.5628 Y48.9441 F120.00
G01 X32.5226 Y48.8997 F120.00
G01 X32.5226 Y47.7802 F120.00
G01 X32.4824 Y47.8340 F120.00
G01 X32.4824 Y48.8458 F120.00
M5
G00 X32.4422 Y48.7828
G01 F60.00
M03 S5000.0
G01 F120.00
G01 X32.4422 Y47.8971 F120.00
G01 X32.4020 Y47.9746 F120.00
G01 X32.4020 Y48.7053 F120.00
G01 X32.3618 Y48.6021 F120.00
G01 X32.3618 Y48.0777 F120.00
M5
G00 X38.9300 Y51.3822
G01 F60.00
M03 S5000.0
G01 F120.00
G01 X38.9249 Y51.3850 F120.00
G01 X38.9225 Y51.3868 F120.00
G01 X38.9203 Y51.3887 F120.00
G01 X38.9166 Y51.3933 F120.00
G01 X38.9151 Y51.3958 F120.00
G01 X38.9128 Y51.4012 F120.00
G01 X38.9117 Y51.4070 F120.00
G01 X38.9115 Y51.4107 F120.00
G01 X38.9115 Y52.7092 F120.00
G01 X38.9121 Y52.7158 F120.00
G01 X38.9138 Y52.7214 F120.00
G01 X38.9151 Y52.7240 F120.00
G01 X38.9183 Y52.7289 F120.00
G01 X38.9225 Y52.7331 F120.00
G01 X38.9274 Y52.7363 F120.00
G01 X38.9328 Y52.7386 F120.00
G01 X38.9386 Y52.7397 F120.00
G01 X38.9422 Y52.7399 F120.00
G01 X40.4908 Y52.7399 F120.00
G01 X40.4973 Y52.7393 F120.00
G01 X40.5030 Y52.7376 F120.00
G01 X40.5081 Y52.7348 F120.00
G01 X40.5127 Y52.7311 F120.00
G01 X40.5147 Y52.7289 F120.00
G01 X40.5179 Y52.7240 F120.00
G01 X40.5202 Y52.7186 F120.00
G01 X40.5213 Y52.7129 F120.00
G01 X40.5215 Y52.7092 F120.00
G01 X40.5215 Y51.4107 F120.00
G01 X40.5209 Y51.4041 F120.00
G01 X40.5192 Y51.3985 F120.00
G01 X40.5179 Y51.3958 F120.00
G01 X40.5147 Y51.3909 F120.00
G01 X40.5105 Y51.3868 F120.00
G01 X40.5056 Y51.3835 F120.00
G01 X40.5002 Y51.3812 F120.00
G01 X40.4944 Y51.3801 F120.00
G01 X40.4908 Y51.3799 F120.00
G01 X38.9422 Y51.3799 F120.00
G01 X38.9357 Y51.3805 F120.00
G01 X38.9300 Y51.3822 F120.00
M5
G00 X38.9115 Y52.6997
G01 F60.00
M03 S5000.0
G01 F120.00
G01 X40.5215 Y52.6997 F120.00
G01 X40.5215 Y52.6595 F120.00
G01 X38.9115 Y52.6595 F120.00
G01 X38.9115 Y52.6193 F120.00
G01 X40.5215 Y52.6193 F120.00
G01 X40.5215 Y52.5791 F120.00
G01 X38.9115 Y52.5791 F120.00
G01 X38.9115 Y52.5389 F120.00
G01 X40.5215 Y52.5389 F120.00
G01 X40.5215 Y52.4987 F120.00
G01 X38.9115 Y52.4987 F120.00
G01 X38.9115 Y52.4585 F120.00
G01 X40.5215 Y52.4585 F120.00
G01 X40.5215 Y52.4183 F120.00
G01 X38.9115 Y52.4183 F120.00
G01 X38.9115 Y52.3781 F120.00
G01 X40.5215 Y52.3781 F120.00
G01 X40.5215 Y52.3379 F120.00
G01 X38.9115 Y52.3379 F120.00
G01 X38.9115 Y52.2977 F120.00
G01 X40.5215 Y52.2977 F120.00
G01 X40.5215 Y52.2575 F120.00
G01 X38.9115 Y52.2575 F120.00
G01 X38.9115 Y52.2173 F120.00
G01 X40.5215 Y52.2173 F120.00
G01 X40.5215 Y52.1771 F120.00
G01 X38.9115 Y52.1771 F120.00
G01 X38.9115 Y52.1369 F120.00
G01 X40.5215 Y52.1369 F120.00
G01 X40.5215 Y52.0967 F120.00
G01 X38.9115 Y52.0967 F120.00
G01 X38.9115 Y52.0565 F120.00
G01 X40.5215 Y52.0565 F120.00
G01 X40.5215 Y52.0163 F120.00
G01 X38.9115 Y52.0163 F120.00
G01 X38.9115 Y51.9761 F120.00
G01 X40.5215 Y51.9761 F120.00
G01 X40.5215 Y51.9359 F120.00
G01 X38.9115 Y51.9359 F120.00
G01 X38.9115 Y51.8957 F120.00
G01 X40.5215 Y51.8957 F120.00
G01 X40.5215 Y51.8555 F120.00
G01 X38.9115 Y51.8555 F120.00
G01 X38.9115 Y51.8153 F120.00
G01 X40.5215 Y51.8153 F120.00
G01 X40.5215 Y51.7751 F120.00
G01 X38.9115 Y51.7751 F120.00
G01 X38.9115 Y51.7349 F120.00
G01 X40.5215 Y51.7349 F120.00
G01 X40.5215 Y51.6947 F120.00
G01 X38.9115 Y51.6947 F120.00
G01 X38.9115 Y51.6545 F120.00
G01 X40.5215 Y51.6545 F120.00
G01 X40.5215 Y51.6143 F120.00
G01 X38.9115 Y51.6143 F120.00
G01 X38.9115 Y51.5741 F120.00
G01 X40.5215 Y51.5741 F120.00
G01 X40.5215 Y51.5339 F120.00
G01 X38.9115 Y51.5339 F120.00
G01 X38.9115 Y51.4937 F120.00
G01 X40.5215 Y51.4937 F120.00
G01 X40.5215 Y51.4535 F120.00
G01 X38.9115 Y51.4535 F120.00
G01 X38.9115 Y51.4133 F120.00
G01 X40.5215 Y51.4133 F120.00
M5
G00 X42.8115 Y48.3247
G01 F60.00
M03 S5000.0
G01 F120.00
G01 X44.5715 Y48.3247 F120.00
G01 X44.5715 Y48.2845 F120.00
G01 X42.8115 Y48.2845 F120.00
G01 X42.8115 Y48.2443 F120.00
G01 X44.5715 Y48.2443 F120.00
G01 X44.5715 Y48.2041 F120.00
G01 X42.8115 Y48.2041 F120.00
G01 X42.8115 Y48.1639 F120.00
G01 X44.5715 Y48.1639 F120.00
G01 X44.5715 Y48.1237 F120.00
G01 X42.8115 Y48.1237 F120.00
G01 X42.8115 Y48.0835 F120.00
G01 X44.5715 Y48.0835 F120.00
G01 X44.5715 Y48.0433 F120.00
G01 X42.8115 Y48.0433 F120.00
G01 X42.8115 Y48.0031 F120.00
G01 X44.5715 Y48.0031 F120.00
G01 X44.5715 Y47.9629 F120.00
G01 X42.8115 Y47.9629 F120.00
G01 X42.8115 Y47.9227 F120.00
G01 X44.5715 Y47.9227 F120.00
G01 X44.5715 Y47.8825 F120.00
G01 X42.8115 Y47.8825 F120.00
G01 X42.8115 Y47.8423 F120.00
G01 X44.5715 Y47.8423 F120.00
G01 X44.5715 Y47.8021 F120.00
G01 X42.8115 Y47.8021 F120.00
G01 X42.8115 Y47.7619 F120.00
G01 X44.5715 Y47.7619 F120.00
G01 X44.5715 Y47.7217 F120.00
G01 X42.8115 Y47.7217 F120.00
G01 X42.8115 Y47.6815 F120.00
G01 X44.5715 Y47.6815 F120.00
G01 X44.5715 Y47.6413 F120.00
G01 X42.8115 Y47.6413 F120.00
G01 X42.8115 Y47.6011 F120.00
G01 X44.5715 Y47.6011 F120.00
G01 X44.5715 Y47.5609 F120.00
G01 X42.8115 Y47.5609 F120.00
G01 X42.8115 Y47.5207 F120.00
G01 X44.5715 Y47.5207 F120.00
G01 X44.5715 Y47.4805 F120.00
G01 X42.8115 Y47.4805 F120.00
G01 X42.8115 Y47.4403 F120.00
G01 X44.5715 Y47.4403 F120.00
G01 X44.5715 Y47.4001 F120.00
G01 X42.8115 Y47.4001 F120.00
G01 X42.8115 Y47.3599 F120.00
G01 X44.5715 Y47.3599 F120.00
G01 X44.5715 Y47.3197 F120.00
G01 X42.8115 Y47.3197 F120.00
G01 X42.8115 Y47.2795 F120.00
G01 X44.5715 Y47.2795 F120.00
G01 X44.5715 Y47.2393 F120.00
G01 X42.8115 Y47.2393 F120.00
G01 X42.8115 Y47.1991 F120.00
G01 X44.5715 Y47.1991 F120.00
G01 X44.5715 Y47.1589 F120.00
G01 X42.8115 Y47.1589 F120.00
G01 X42.8115 Y47.1187 F120.00
G01 X44.5715 Y47.1187 F120.00
G01 X44.5715 Y47.0785 F120.00
G01 X42.8115 Y47.0785 F120.00
G01 X42.8115 Y47.0383 F120.00
G01 X44.5715 Y47.0383 F120.00
G01 X44.5715 Y46.9981 F120.00
G01 X42.8115 Y46.9981 F120.00
G01 X42.8115 Y46.9579 F120.00
G01 X44.5715 Y46.9579 F120.00
G01 X44.5715 Y46.9177 F120.00
G01 X42.8115 Y46.9177 F120.00
G01 X42.8115 Y46.8775 F120.00
G01 X44.5715 Y46.8775 F120.00
G01 X44.5715 Y46.8373 F120.00
G01 X42.8115 Y46.8373 F120.00
G01 X42.8115 Y46.7971 F120.00
G01 X44.5715 Y46.7971 F120.00
G01 X44.5715 Y46.7569 F120.00
G01 X42.8115 Y46.7569 F120.00
G01 X42.8115 Y46.7167 F120.00
G01 X44.5715 Y46.7167 F120.00
G01 X44.5715 Y46.6765 F120.00
G01 X42.8115 Y46.6765 F120.00
G01 X42.8115 Y46.6363 F120.00
G01 X44.5715 Y46.6363 F120.00
M5
G00 X44.5402 Y45.1743
G01 F60.00
M03 S5000.0
G01 F120.00
G01 X44.5402 Y44.7155 F120.00
G01 X44.5000 Y44.5985 F120.00
G01 X44.5000 Y45.2914 F120.00
G01 X44.4598 Y45.3729 F120.00
G01 X44.4598 Y44.5170 F120.00
G01 X44.4196 Y44.4511 F120.00
G01 X44.4196 Y45.4388 F120.00
G01 X44.3794 Y45.4930 F120.00
G01 X44.3794 Y44.3969 F120.00
G01 X44.3392 Y44.3507 F120.00
G01 X44.3392 Y45.5392 F120.00
G01 X44.2990 Y45.5806 F120.00
G01 X44.2990 Y44.3092 F120.00
G01 X44.2588 Y44.2728 F120.00
G01 X44.2588 Y45.6171 F120.00
G01 X44.2186 Y45.6484 F120.00
G01 X44.2186 Y44.2415 F120.00
G01 X44.1784 Y44.2120 F120.00
G01 X44.1784 Y45.6779 F120.00
G01 X44.1382 Y45.7020 F120.00
G01 X44.1382 Y44.1879 F120.00
G01 X44.0980 Y44.1648 F120.00
G01 X44.0980 Y45.7250 F120.00
G01 X44.0578 Y45.7440 F120.00
G01 X44.0578 Y44.1458 F120.00
G01 X44.0176 Y44.1280 F120.00
G01 X44.0176 Y45.7618 F120.00
G01 X43.9774 Y45.7762 F120.00
G01 X43.9774 Y44.1137 F120.00
G01 X43.9372 Y44.1003 F120.00
G01 X43.9372 Y45.7895 F120.00
G01 X43.8970 Y45.7996 F120.00
G01 X43.8970 Y44.0903 F120.00
G01 X43.8568 Y44.0808 F120.00
G01 X43.8568 Y45.8090 F120.00
G01 X43.8166 Y45.8150 F120.00
G01 X43.8166 Y44.0749 F120.00
G01 X43.7764 Y44.0691 F120.00
G01 X43.7764 Y45.8207 F120.00
G01 X43.7362 Y45.8228 F120.00
G01 X43.7362 Y44.0671 F120.00
G01 X43.6960 Y44.0651 F120.00
G01 X43.6960 Y45.8247 F120.00
G01 X43.6558 Y45.8232 F120.00
G01 X43.6558 Y44.0666 F120.00
G01 X43.6156 Y44.0686 F120.00
G01 X43.6156 Y45.8212 F120.00
G01 X43.5754 Y45.8163 F120.00
G01 X43.5754 Y44.0736 F120.00
G01 X43.5352 Y44.0795 F120.00
G01 X43.5352 Y45.8103 F120.00
G01 X43.4950 Y45.8018 F120.00
G01 X43.4950 Y44.0880 F120.00
G01 X43.4548 Y44.0981 F120.00
G01 X43.4548 Y45.7918 F120.00
G01 X43.4340 Y45.7863 F120.00
G01 X43.3568 Y45.7587 F120.00
G01 X43.3527 Y45.7570 F120.00
G01 X43.2786 Y45.7220 F120.00
G01 X43.2748 Y45.7199 F120.00
G01 X43.2045 Y45.6778 F120.00
G01 X43.2008 Y45.6753 F120.00
G01 X43.1350 Y45.6265 F120.00
G01 X43.1316 Y45.6237 F120.00
G01 X43.0709 Y45.5687 F120.00
G01 X43.0677 Y45.5656 F120.00
G01 X43.0127 Y45.5048 F120.00
G01 X43.0099 Y45.5014 F120.00
G01 X42.9611 Y45.4356 F120.00
G01 X42.9165 Y45.3617 F120.00
G01 X42.8777 Y45.2796 F120.00
G01 X42.8501 Y45.2025 F120.00
G01 X42.8289 Y45.1188 F120.00
G01 X42.8156 Y45.0290 F120.00
G01 X42.8116 Y44.9471 F120.00
G01 X42.8156 Y44.8609 F120.00
G01 X42.8280 Y44.7754 F120.00
G01 X42.8501 Y44.6874 F120.00
G01 X42.8777 Y44.6102 F120.00
G01 X42.9144 Y44.5321 F120.00
G01 X42.9586 Y44.4579 F120.00
G01 X42.9611 Y44.4542 F120.00
G01 X43.0099 Y44.3884 F120.00
G01 X43.0127 Y44.3850 F120.00
G01 X43.0677 Y44.3243 F120.00
G01 X43.0709 Y44.3212 F120.00
G01 X43.1316 Y44.2661 F120.00
G01 X43.1350 Y44.2633 F120.00
G01 X43.2008 Y44.2145 F120.00
G01 X43.2045 Y44.2121 F120.00
G01 X43.2748 Y44.1699 F120.00
G01 X43.2786 Y44.1679 F120.00
G01 X43.3527 Y44.1328 F120.00
G01 X43.3568 Y44.1311 F120.00
G01 X43.4340 Y44.1035 F120.00
G01 X43.4382 Y44.1022 F120.00
G01 X43.5177 Y44.0823 F120.00
G01 X43.5220 Y44.0815 F120.00
G01 X43.6031 Y44.0694 F120.00
G01 X43.6074 Y44.0690 F120.00
G01 X43.6893 Y44.0650 F120.00
G01 X43.6937 Y44.0650 F120.00
G01 X43.7755 Y44.0690 F120.00
G01 X43.7799 Y44.0694 F120.00
G01 X43.8610 Y44.0815 F120.00
G01 X43.8653 Y44.0823 F120.00
G01 X43.9448 Y44.1022 F120.00
G01 X43.9490 Y44.1035 F120.00
G01 X44.0262 Y44.1311 F120.00
G01 X44.0303 Y44.1328 F120.00
G01 X44.1043 Y44.1679 F120.00
G01 X44.1082 Y44.1699 F120.00
G01 X44.1785 Y44.2121 F120.00
G01 X44.1822 Y44.2145 F120.00
G01 X44.2480 Y44.2633 F120.00
G01 X44.2514 Y44.2661 F120.00
G01 X44.3121 Y44.3212 F120.00
G01 X44.3153 Y44.3243 F120.00
G01 X44.3703 Y44.3850 F120.00
G01 X44.3731 Y44.3884 F120.00
G01 X44.4219 Y44.4542 F120.00
G01 X44.4244 Y44.4579 F120.00
G01 X44.4665 Y44.5282 F120.00
G01 X44.4686 Y44.5321 F120.00
G01 X44.5036 Y44.6061 F120.00
G01 X44.5329 Y44.6874 F120.00
G01 X44.5342 Y44.6916 F120.00
G01 X44.5541 Y44.7711 F120.00
G01 X44.5549 Y44.7754 F120.00
G01 X44.5670 Y44.8565 F120.00
G01 X44.5714 Y44.9427 F120.00
G01 X44.5674 Y45.0290 F120.00
G01 X44.5541 Y45.1188 F120.00
G01 X44.5342 Y45.1982 F120.00
G01 X44.5053 Y45.2796 F120.00
G01 X44.5036 Y45.2837 F120.00
G01 X44.4686 Y45.3578 F120.00
G01 X44.4665 Y45.3617 F120.00
G01 X44.4244 Y45.4319 F120.00
G01 X44.4219 Y45.4356 F120.00
G01 X44.3731 Y45.5014 F120.00
G01 X44.3703 Y45.5048 F120.00
G01 X44.3153 Y45.5656 F120.00
G01 X44.3121 Y45.5687 F120.00
G01 X44.2514 Y45.6237 F120.00
G01 X44.2480 Y45.6265 F120.00
G01 X44.1822 Y45.6753 F120.00
G01 X44.1785 Y45.6778 F120.00
G01 X44.1082 Y45.7199 F120.00
G01 X44.1043 Y45.7220 F120.00
G01 X44.0303 Y45.7570 F120.00
G01 X44.0262 Y45.7587 F120.00
G01 X43.9490 Y45.7863 F120.00
G01 X43.9448 Y45.7876 F120.00
G01 X43.8653 Y45.8075 F120.00
G01 X43.8610 Y45.8084 F120.00
G01 X43.7799 Y45.8204 F120.00
G01 X43.7755 Y45.8208 F120.00
G01 X43.6937 Y45.8248 F120.00
G01 X43.6893 Y45.8248 F120.00
G01 X43.6074 Y45.8208 F120.00
G01 X43.6031 Y45.8204 F120.00
G01 X43.5220 Y45.8084 F120.00
G01 X43.5177 Y45.8075 F120.00
G01 X43.4382 Y45.7876 F120.00
G01 X43.4340 Y45.7863 F120.00
G01 X43.4146 Y45.7794 F120.00
G01 X43.4146 Y44.1105 F120.00
G01 X43.3744 Y44.1248 F120.00
G01 X43.3744 Y45.7650 F120.00
G01 X43.3342 Y45.7482 F120.00
G01 X43.3342 Y44.1416 F120.00
G01 X43.2940 Y44.1606 F120.00
G01 X43.2940 Y45.7292 F120.00
G01 X43.2538 Y45.7073 F120.00
G01 X43.2538 Y44.1825 F120.00
G01 X43.2136 Y44.2066 F120.00
G01 X43.2136 Y45.6832 F120.00
G01 X43.1734 Y45.6550 F120.00
G01 X43.1734 Y44.2349 F120.00
G01 X43.1332 Y44.2648 F120.00
G01 X43.1332 Y45.6250 F120.00
G01 X43.0930 Y45.5887 F120.00
G01 X43.0930 Y44.3011 F120.00
G01 X43.0528 Y44.3408 F120.00
G01 X43.0528 Y45.5491 F120.00
G01 X43.0126 Y45.5047 F120.00
G01 X43.0126 Y44.3852 F120.00
G01 X42.9724 Y44.4390 F120.00
G01 X42.9724 Y45.4508 F120.00
M5
G00 X42.9322 Y45.3878
G01 F60.00
M03 S5000.0
G01 F120.00
G01 X42.9322 Y44.5021 F120.00
G01 X42.8920 Y44.5796 F120.00
G01 X42.8920 Y45.3103 F120.00
G01 X42.8518 Y45.2071 F120.00
G01 X42.8518 Y44.6827 F120.00
M5
G00 X42.9724 Y42.9108
G01 F60.00
M03 S5000.0
G01 F120.00
G01 X42.9724 Y41.8990 F120.00
G01 X43.0126 Y41.8452 F120.00
G01 X43.0126 Y42.9647 F120.00
G01 X43.0528 Y43.0091 F120.00
G01 X43.0528 Y41.8008 F120.00
G01 X43.0930 Y41.7611 F120.00
G01 X43.0930 Y43.0487 F120.00
G01 X43.1332 Y43.0850 F120.00
G01 X43.1332 Y41.7248 F120.00
G01 X43.1734 Y41.6949 F120.00
G01 X43.1734 Y43.1150 F120.00
G01 X43.2136 Y43.1432 F120.00
G01 X43.2136 Y41.6666 F120.00
G01 X43.2538 Y41.6425 F120.00
G01 X43.2538 Y43.1673 F120.00
G01 X43.2940 Y43.1892 F120.00
G01 X43.2940 Y41.6206 F120.00
G01 X43.3342 Y41.6016 F120.00
G01 X43.3342 Y43.2082 F120.00
G01 X43.3744 Y43.2250 F120.00
G01 X43.3744 Y41.5848 F120.00
G01 X43.4146 Y41.5705 F120.00
G01 X43.4146 Y43.2394 F120.00
G01 X43.4340 Y43.2463 F120.00
G01 X43.4382 Y43.2476 F120.00
G01 X43.5177 Y43.2675 F120.00
G01 X43.5220 Y43.2684 F120.00
G01 X43.6031 Y43.2804 F120.00
G01 X43.6074 Y43.2808 F120.00
G01 X43.6893 Y43.2848 F120.00
G01 X43.6937 Y43.2848 F120.00
G01 X43.7755 Y43.2808 F120.00
G01 X43.7799 Y43.2804 F120.00
G01 X43.8610 Y43.2684 F120.00
G01 X43.8653 Y43.2675 F120.00
G01 X43.9448 Y43.2476 F120.00
G01 X43.9490 Y43.2463 F120.00
G01 X44.0262 Y43.2187 F120.00
G01 X44.0303 Y43.2170 F120.00
G01 X44.1043 Y43.1820 F120.00
G01 X44.1082 Y43.1799 F120.00
G01 X44.1785 Y43.1378 F120.00
G01 X44.1822 Y43.1353 F120.00
G01 X44.2480 Y43.0865 F120.00
G01 X44.2514 Y43.0837 F120.00
G01 X44.3121 Y43.0287 F120.00
G01 X44.3153 Y43.0256 F120.00
G01 X44.3703 Y42.9648 F120.00
G01 X44.3731 Y42.9614 F120.00
G01 X44.4219 Y42.8956 F120.00
G01 X44.4244 Y42.8919 F120.00
G01 X44.4665 Y42.8217 F120.00
G01 X44.4686 Y42.8178 F120.00
G01 X44.5036 Y42.7437 F120.00
G01 X44.5053 Y42.7396 F120.00
G01 X44.5342 Y42.6582 F120.00
G01 X44.5541 Y42.5788 F120.00
G01 X44.5674 Y42.4890 F120.00
G01 X44.5714 Y42.4027 F120.00
G01 X44.5670 Y42.3165 F120.00
G01 X44.5549 Y42.2354 F120.00
G01 X44.5541 Y42.2311 F120.00
G01 X44.5342 Y42.1516 F120.00
G01 X44.5329 Y42.1474 F120.00
G01 X44.5036 Y42.0661 F120.00
G01 X44.4686 Y41.9921 F120.00
G01 X44.4665 Y41.9882 F120.00
G01 X44.4244 Y41.9179 F120.00
G01 X44.4219 Y41.9142 F120.00
G01 X44.3731 Y41.8484 F120.00
G01 X44.3703 Y41.8450 F120.00
G01 X44.3153 Y41.7843 F120.00
G01 X44.3121 Y41.7812 F120.00
G01 X44.2514 Y41.7261 F120.00
G01 X44.2480 Y41.7233 F120.00
G01 X44.1822 Y41.6745 F120.00
G01 X44.1785 Y41.6721 F120.00
G01 X44.1082 Y41.6299 F120.00
G01 X44.1043 Y41.6279 F120.00
G01 X44.0303 Y41.5928 F120.00
G01 X44.0262 Y41.5911 F120.00
G01 X43.9490 Y41.5635 F120.00
G01 X43.9448 Y41.5622 F120.00
G01 X43.8653 Y41.5423 F120.00
G01 X43.8610 Y41.5415 F120.00
G01 X43.7799 Y41.5294 F120.00
G01 X43.7755 Y41.5290 F120.00
G01 X43.6937 Y41.5250 F120.00
G01 X43.6893 Y41.5250 F120.00
G01 X43.6074 Y41.5290 F120.00
G01 X43.6031 Y41.5294 F120.00
G01 X43.5220 Y41.5415 F120.00
G01 X43.5177 Y41.5423 F120.00
G01 X43.4382 Y41.5622 F120.00
G01 X43.4340 Y41.5635 F120.00
G01 X43.3568 Y41.5911 F120.00
G01 X43.3527 Y41.5928 F120.00
G01 X43.2786 Y41.6279 F120.00
G01 X43.2748 Y41.6299 F120.00
G01 X43.2045 Y41.6721 F120.00
G01 X43.2008 Y41.6745 F120.00
G01 X43.1350 Y41.7233 F120.00
G01 X43.1316 Y41.7261 F120.00
G01 X43.0709 Y41.7812 F120.00
G01 X43.0677 Y41.7843 F120.00
G01 X43.0127 Y41.8450 F120.00
G01 X43.0099 Y41.8484 F120.00
G01 X42.9611 Y41.9142 F120.00
G01 X42.9586 Y41.9179 F120.00
G01 X42.9144 Y41.9921 F120.00
G01 X42.8777 Y42.0702 F120.00
G01 X42.8501 Y42.1474 F120.00
G01 X42.8280 Y42.2354 F120.00
G01 X42.8156 Y42.3209 F120.00
G01 X42.8116 Y42.4071 F120.00
G01 X42.8156 Y42.4890 F120.00
G01 X42.8289 Y42.5788 F120.00
G01 X42.8501 Y42.6625 F120.00
G01 X42.8777 Y42.7396 F120.00
G01 X42.9165 Y42.8217 F120.00
G01 X42.9611 Y42.8956 F120.00
G01 X43.0099 Y42.9614 F120.00
G01 X43.0127 Y42.9648 F120.00
G01 X43.0677 Y43.0256 F120.00
G01 X43.0709 Y43.0287 F120.00
G01 X43.1316 Y43.0837 F120.00
G01 X43.1350 Y43.0865 F120.00
G01 X43.2008 Y43.1353 F120.00
G01 X43.2045 Y43.1378 F120.00
G01 X43.2748 Y43.1799 F120.00
G01 X43.2786 Y43.1820 F120.00
G01 X43.3527 Y43.2170 F120.00
G01 X43.3568 Y43.2187 F120.00
G01 X43.4340 Y43.2463 F120.00
G01 X43.4548 Y43.2518 F120.00
G01 X43.4548 Y41.5581 F120.00
G01 X43.4950 Y41.5480 F120.00
G01 X43.4950 Y43.2618 F120.00
G01 X43.5352 Y43.2703 F120.00
G01 X43.5352 Y41.5395 F120.00
G01 X43.5754 Y41.5336 F120.00
G01 X43.5754 Y43.2763 F120.00
G01 X43.6156 Y43.2812 F120.00
G01 X43.6156 Y41.5286 F120.00
G01 X43.6558 Y41.5266 F120.00
G01 X43.6558 Y43.2832 F120.00
G01 X43.6960 Y43.2847 F120.00
G01 X43.6960 Y41.5251 F120.00
G01 X43.7362 Y41.5271 F120.00
G01 X43.7362 Y43.2828 F120.00
G01 X43.7764 Y43.2807 F120.00
G01 X43.7764 Y41.5291 F120.00
G01 X43.8166 Y41.5349 F120.00
G01 X43.8166 Y43.2750 F120.00
G01 X43.8568 Y43.2690 F120.00
G01 X43.8568 Y41.5408 F120.00
G01 X43.8970 Y41.5503 F120.00
G01 X43.8970 Y43.2596 F120.00
G01 X43.9372 Y43.2495 F120.00
G01 X43.9372 Y41.5603 F120.00
G01 X43.9774 Y41.5737 F120.00
G01 X43.9774 Y43.2362 F120.00
G01 X44.0176 Y43.2218 F120.00
G01 X44.0176 Y41.5880 F120.00
G01 X44.0578 Y41.6058 F120.00
G01 X44.0578 Y43.2040 F120.00
G01 X44.0980 Y43.1850 F120.00
G01 X44.0980 Y41.6248 F120.00
G01 X44.1382 Y41.6479 F120.00
G01 X44.1382 Y43.1620 F120.00
G01 X44.1784 Y43.1379 F120.00
G01 X44.1784 Y41.6720 F120.00
G01 X44.2186 Y41.7015 F120.00
G01 X44.2186 Y43.1084 F120.00
G01 X44.2588 Y43.0771 F120.00
G01 X44.2588 Y41.7328 F120.00
G01 X44.2990 Y41.7692 F120.00
G01 X44.2990 Y43.0406 F120.00
G01 X44.3392 Y42.9992 F120.00
G01 X44.3392 Y41.8107 F120.00
G01 X44.3794 Y41.8569 F120.00
G01 X44.3794 Y42.9530 F120.00
G01 X44.4196 Y42.8988 F120.00
G01 X44.4196 Y41.9111 F120.00
G01 X44.4598 Y41.9770 F120.00
G01 X44.4598 Y42.8329 F120.00
G01 X44.5000 Y42.7514 F120.00
G01 X44.5000 Y42.0585 F120.00
G01 X44.5402 Y42.1755 F120.00
G01 X44.5402 Y42.6343 F120.00
M5
G00 X42.9322 Y42.8478
G01 F60.00
M03 S5000.0
G01 F120.00
G01 X42.9322 Y41.9621 F120.00
G01 X42.8920 Y42.0396 F120.00
G01 X42.8920 Y42.7703 F120.00
G01 X42.8518 Y42.6671 F120.00
G01 X42.8518 Y42.1427 F120.00
M5
G00 X41.8767 Y42.0280
G01 F60.00
M03 S5000.0
G01 F120.00
G01 X40.4063 Y42.0280 F120.00
G01 X40.4392 Y42.0682 F120.00
G01 X41.8438 Y42.0682 F120.00
G01 X41.8074 Y42.1084 F120.00
G01 X40.4756 Y42.1084 F120.00
G01 X40.5182 Y42.1486 F120.00
G01 X41.7648 Y42.1486 F120.00
G01 X41.7180 Y42.1888 F120.00
G01 X40.5650 Y42.1888 F120.00
G01 X40.6192 Y42.2290 F120.00
G01 X41.6638 Y42.2290 F120.00
G01 X41.5981 Y42.2692 F120.00
G01 X40.6849 Y42.2692 F120.00
G01 X40.7651 Y42.3094 F120.00
G01 X41.5179 Y42.3094 F120.00
G01 X41.4120 Y42.3496 F120.00
G01 X40.8710 Y42.3496 F120.00
G01 X40.8694 Y42.3492 F120.00
G01 X40.8737 Y42.3504 F120.00
G01 X40.9579 Y42.3716 F120.00
G01 X40.9622 Y42.3724 F120.00
G01 X41.0525 Y42.3856 F120.00
G01 X41.1437 Y42.3898 F120.00
G01 X41.2348 Y42.3852 F120.00
G01 X41.3208 Y42.3724 F120.00
G01 X41.3251 Y42.3716 F120.00
G01 X41.4093 Y42.3504 F120.00
G01 X41.4136 Y42.3492 F120.00
G01 X41.4994 Y42.3182 F120.00
G01 X41.5779 Y42.2811 F120.00
G01 X41.5818 Y42.2790 F120.00
G01 X41.6563 Y42.2344 F120.00
G01 X41.6600 Y42.2319 F120.00
G01 X41.7297 Y42.1802 F120.00
G01 X41.7331 Y42.1774 F120.00
G01 X41.7975 Y42.1190 F120.00
G01 X41.8006 Y42.1159 F120.00
G01 X41.8589 Y42.0516 F120.00
G01 X41.8617 Y42.0482 F120.00
G01 X41.9135 Y41.9784 F120.00
G01 X41.9159 Y41.9747 F120.00
G01 X41.9627 Y41.8963 F120.00
G01 X42.0015 Y41.8138 F120.00
G01 X42.0307 Y41.7320 F120.00
G01 X42.0540 Y41.6392 F120.00
G01 X42.0672 Y41.5489 F120.00
G01 X42.0715 Y41.4599 F120.00
G01 X42.0672 Y41.3710 F120.00
G01 X42.0531 Y41.2763 F120.00
G01 X42.0307 Y41.1879 F120.00
G01 X42.0015 Y41.1061 F120.00
G01 X41.9606 Y41.0196 F120.00
G01 X41.9135 Y40.9414 F120.00
G01 X41.8617 Y40.8717 F120.00
G01 X41.7975 Y40.8008 F120.00
G01 X41.7297 Y40.7397 F120.00
G01 X41.6600 Y40.6879 F120.00
G01 X41.5779 Y40.6388 F120.00
G01 X41.4953 Y40.5999 F120.00
G01 X41.4093 Y40.5694 F120.00
G01 X41.3251 Y40.5483 F120.00
G01 X41.2304 Y40.5343 F120.00
G01 X41.1393 Y40.5300 F120.00
G01 X41.0482 Y40.5347 F120.00
G01 X40.9622 Y40.5474 F120.00
G01 X40.8694 Y40.5707 F120.00
G01 X40.7836 Y40.6016 F120.00
G01 X40.7051 Y40.6388 F120.00
G01 X40.6230 Y40.6879 F120.00
G01 X40.5499 Y40.7425 F120.00
G01 X40.4824 Y40.8039 F120.00
G01 X40.4213 Y40.8717 F120.00
G01 X40.3695 Y40.9414 F120.00
G01 X40.3203 Y41.0235 F120.00
G01 X40.2815 Y41.1061 F120.00
G01 X40.2510 Y41.1921 F120.00
G01 X40.2290 Y41.2807 F120.00
G01 X40.2163 Y41.3666 F120.00
G01 X40.2116 Y41.4621 F120.00
G01 X40.2163 Y41.5533 F120.00
G01 X40.2290 Y41.6392 F120.00
G01 X40.2523 Y41.7320 F120.00
G01 X40.2832 Y41.8178 F120.00
G01 X40.3224 Y41.9002 F120.00
G01 X40.3695 Y41.9784 F120.00
G01 X40.4213 Y42.0482 F120.00
G01 X40.4241 Y42.0516 F120.00
G01 X40.4824 Y42.1159 F120.00
G01 X40.4855 Y42.1190 F120.00
G01 X40.5499 Y42.1774 F120.00
G01 X40.5533 Y42.1802 F120.00
G01 X40.6230 Y42.2319 F120.00
G01 X40.6267 Y42.2344 F120.00
G01 X40.7012 Y42.2790 F120.00
G01 X40.7051 Y42.2811 F120.00
G01 X40.7836 Y42.3182 F120.00
G01 X40.7877 Y42.3199 F120.00
G01 X40.8694 Y42.3492 F120.00
M5
G00 X40.3765 Y41.9878
G01 F60.00
M03 S5000.0
G01 F120.00
G01 X41.9065 Y41.9878 F120.00
G01 X41.9322 Y41.9476 F120.00
G01 X40.3508 Y41.9476 F120.00
G01 X40.3267 Y41.9074 F120.00
G01 X41.9563 Y41.9074 F120.00
G01 X41.9764 Y41.8672 F120.00
G01 X40.3066 Y41.8672 F120.00
G01 X40.2876 Y41.8270 F120.00
G01 X41.9954 Y41.8270 F120.00
G01 X42.0111 Y41.7868 F120.00
G01 X40.2719 Y41.7868 F120.00
G01 X40.2575 Y41.7466 F120.00
G01 X42.0255 Y41.7466 F120.00
G01 X42.0374 Y41.7064 F120.00
G01 X40.2456 Y41.7064 F120.00
G01 X40.2356 Y41.6662 F120.00
G01 X42.0474 Y41.6662 F120.00
G01 X42.0559 Y41.6260 F120.00
G01 X40.2271 Y41.6260 F120.00
G01 X40.2211 Y41.5858 F120.00
G01 X42.0619 Y41.5858 F120.00
G01 X42.0673 Y41.5456 F120.00
G01 X40.2157 Y41.5456 F120.00
G01 X40.2137 Y41.5054 F120.00
G01 X42.0693 Y41.5054 F120.00
G01 X42.0713 Y41.4652 F120.00
G01 X40.2117 Y41.4652 F120.00
G01 X40.2132 Y41.4250 F120.00
G01 X42.0698 Y41.4250 F120.00
G01 X42.0678 Y41.3848 F120.00
G01 X40.2151 Y41.3848 F120.00
G01 X40.2195 Y41.3446 F120.00
G01 X42.0635 Y41.3446 F120.00
G01 X42.0575 Y41.3044 F120.00
G01 X40.2255 Y41.3044 F120.00
G01 X40.2329 Y41.2642 F120.00
G01 X42.0501 Y41.2642 F120.00
G01 X42.0400 Y41.2240 F120.00
G01 X40.2430 Y41.2240 F120.00
G01 X40.2537 Y41.1838 F120.00
G01 X42.0293 Y41.1838 F120.00
G01 X42.0149 Y41.1436 F120.00
G01 X40.2681 Y41.1436 F120.00
G01 X40.2826 Y41.1034 F120.00
G01 X42.0004 Y41.1034 F120.00
G01 X41.9815 Y41.0632 F120.00
G01 X40.3015 Y41.0632 F120.00
G01 X40.3206 Y41.0230 F120.00
G01 X41.9624 Y41.0230 F120.00
G01 X41.9385 Y40.9828 F120.00
G01 X40.3444 Y40.9828 F120.00
G01 X40.3687 Y40.9426 F120.00
G01 X41.9143 Y40.9426 F120.00
G01 X41.8846 Y40.9024 F120.00
G01 X40.3984 Y40.9024 F120.00
G01 X40.4295 Y40.8622 F120.00
G01 X41.8535 Y40.8622 F120.00
G01 X41.8170 Y40.8220 F120.00
G01 X40.4660 Y40.8220 F120.00
G01 X40.5064 Y40.7818 F120.00
G01 X41.7766 Y40.7818 F120.00
G01 X41.7321 Y40.7416 F120.00
G01 X40.5509 Y40.7416 F120.00
G01 X40.6048 Y40.7014 F120.00
G01 X41.6782 Y40.7014 F120.00
G01 X41.6159 Y40.6612 F120.00
G01 X40.6671 Y40.6612 F120.00
G01 X40.7425 Y40.6210 F120.00
G01 X41.5405 Y40.6210 F120.00
G01 X41.4420 Y40.5808 F120.00
G01 X40.8410 Y40.5808 F120.00
G01 X41.0080 Y40.5406 F120.00
G01 X41.2750 Y40.5406 F120.00
M5
G00 X40.6785 Y39.2401
G01 F60.00
M03 S5000.0
G01 F120.00
G01 X40.5968 Y39.2108 F120.00
G01 X40.5927 Y39.2091 F120.00
G01 X40.5142 Y39.1720 F120.00
G01 X40.5103 Y39.1699 F120.00
G01 X40.4358 Y39.1253 F120.00
G01 X40.4321 Y39.1228 F120.00
G01 X40.3624 Y39.0711 F120.00
G01 X40.3590 Y39.0683 F120.00
G01 X40.2946 Y39.0099 F120.00
G01 X40.2915 Y39.0068 F120.00
G01 X40.2332 Y38.9425 F120.00
G01 X40.2304 Y38.9391 F120.00
G01 X40.1786 Y38.8693 F120.00
G01 X40.1315 Y38.7911 F120.00
G01 X40.0923 Y38.7087 F120.00
G01 X40.0614 Y38.6229 F120.00
G01 X40.0381 Y38.5301 F120.00
G01 X40.0254 Y38.4442 F120.00
G01 X40.0207 Y38.3530 F120.00
G01 X40.0254 Y38.2575 F120.00
G01 X40.0381 Y38.1716 F120.00
G01 X40.0601 Y38.0830 F120.00
G01 X40.0906 Y37.9970 F120.00
G01 X40.1294 Y37.9144 F120.00
G01 X40.1786 Y37.8323 F120.00
G01 X40.2304 Y37.7626 F120.00
G01 X40.2915 Y37.6948 F120.00
G01 X40.3590 Y37.6334 F120.00
G01 X40.4321 Y37.5788 F120.00
G01 X40.5142 Y37.5297 F120.00
G01 X40.5927 Y37.4925 F120.00
G01 X40.6785 Y37.4616 F120.00
G01 X40.7713 Y37.4383 F120.00
G01 X40.8573 Y37.4256 F120.00
G01 X40.9484 Y37.4209 F120.00
G01 X41.0395 Y37.4252 F120.00
G01 X41.1342 Y37.4392 F120.00
G01 X41.2184 Y37.4603 F120.00
G01 X41.3044 Y37.4908 F120.00
G01 X41.3870 Y37.5297 F120.00
G01 X41.4691 Y37.5788 F120.00
G01 X41.5388 Y37.6306 F120.00
G01 X41.6066 Y37.6917 F120.00
G01 X41.6708 Y37.7626 F120.00
G01 X41.7226 Y37.8323 F120.00
G01 X41.7697 Y37.9105 F120.00
G01 X41.8106 Y37.9970 F120.00
G01 X41.8398 Y38.0788 F120.00
G01 X41.8622 Y38.1672 F120.00
G01 X41.8763 Y38.2619 F120.00
G01 X41.8806 Y38.3508 F120.00
G01 X41.8763 Y38.4398 F120.00
G01 X41.8631 Y38.5301 F120.00
G01 X41.8398 Y38.6229 F120.00
G01 X41.8106 Y38.7047 F120.00
G01 X41.7718 Y38.7872 F120.00
G01 X41.7250 Y38.8656 F120.00
G01 X41.7226 Y38.8693 F120.00
G01 X41.6708 Y38.9391 F120.00
G01 X41.6680 Y38.9425 F120.00
G01 X41.6097 Y39.0068 F120.00
G01 X41.6066 Y39.0099 F120.00
G01 X41.5422 Y39.0683 F120.00
G01 X41.5388 Y39.0711 F120.00
G01 X41.4691 Y39.1228 F120.00
G01 X41.4654 Y39.1253 F120.00
G01 X41.3909 Y39.1699 F120.00
G01 X41.3870 Y39.1720 F120.00
G01 X41.3085 Y39.2091 F120.00
G01 X41.2227 Y39.2401 F120.00
G01 X41.2184 Y39.2413 F120.00
G01 X41.1342 Y39.2625 F120.00
G01 X41.1299 Y39.2633 F120.00
G01 X41.0439 Y39.2761 F120.00
G01 X40.9528 Y39.2808 F120.00
G01 X40.8616 Y39.2765 F120.00
G01 X40.7713 Y39.2633 F120.00
G01 X40.7670 Y39.2625 F120.00
G01 X40.6828 Y39.2413 F120.00
G01 X40.6785 Y39.2401 F120.00
G01 X40.6801 Y39.2406 F120.00
G01 X41.2211 Y39.2406 F120.00
G01 X41.3270 Y39.2004 F120.00
G01 X40.5741 Y39.2004 F120.00
G01 X40.4940 Y39.1602 F120.00
G01 X41.4072 Y39.1602 F120.00
G01 X41.4729 Y39.1200 F120.00
G01 X40.4283 Y39.1200 F120.00
G01 X40.3741 Y39.0798 F120.00
G01 X41.5271 Y39.0798 F120.00
G01 X41.5739 Y39.0396 F120.00
G01 X40.3273 Y39.0396 F120.00
G01 X40.2847 Y38.9994 F120.00
G01 X41.6165 Y38.9994 F120.00
G01 X41.6529 Y38.9592 F120.00
G01 X40.2483 Y38.9592 F120.00
G01 X40.2154 Y38.9190 F120.00
G01 X41.6858 Y38.9190 F120.00
M5
G00 X40.1856 Y38.8788
G01 F60.00
M03 S5000.0
G01 F120.00
G01 X41.7156 Y38.8788 F120.00
G01 X41.7413 Y38.8386 F120.00
G01 X40.1599 Y38.8386 F120.00
G01 X40.1358 Y38.7984 F120.00
G01 X41.7654 Y38.7984 F120.00
G01 X41.7855 Y38.7582 F120.00
G01 X40.1157 Y38.7582 F120.00
G01 X40.0967 Y38.7180 F120.00
G01 X41.8045 Y38.7180 F120.00
G01 X41.8202 Y38.6778 F120.00
G01 X40.0810 Y38.6778 F120.00
G01 X40.0666 Y38.6376 F120.00
G01 X41.8346 Y38.6376 F120.00
G01 X41.8465 Y38.5974 F120.00
G01 X40.0547 Y38.5974 F120.00
G01 X40.0447 Y38.5572 F120.00
G01 X41.8565 Y38.5572 F120.00
G01 X41.8650 Y38.5170 F120.00
G01 X40.0362 Y38.5170 F120.00
G01 X40.0302 Y38.4768 F120.00
G01 X41.8710 Y38.4768 F120.00
G01 X41.8764 Y38.4366 F120.00
G01 X40.0248 Y38.4366 F120.00
G01 X40.0228 Y38.3964 F120.00
G01 X41.8784 Y38.3964 F120.00
G01 X41.8804 Y38.3562 F120.00
G01 X40.0208 Y38.3562 F120.00
G01 X40.0223 Y38.3160 F120.00
G01 X41.8789 Y38.3160 F120.00
G01 X41.8769 Y38.2758 F120.00
G01 X40.0242 Y38.2758 F120.00
G01 X40.0286 Y38.2356 F120.00
G01 X41.8726 Y38.2356 F120.00
G01 X41.8666 Y38.1954 F120.00
G01 X40.0346 Y38.1954 F120.00
G01 X40.0420 Y38.1552 F120.00
G01 X41.8592 Y38.1552 F120.00
G01 X41.8491 Y38.1150 F120.00
G01 X40.0521 Y38.1150 F120.00
G01 X40.0628 Y38.0748 F120.00
G01 X41.8384 Y38.0748 F120.00
G01 X41.8240 Y38.0346 F120.00
G01 X40.0772 Y38.0346 F120.00
G01 X40.0917 Y37.9944 F120.00
G01 X41.8095 Y37.9944 F120.00
G01 X41.7906 Y37.9542 F120.00
G01 X40.1106 Y37.9542 F120.00
G01 X40.1297 Y37.9140 F120.00
G01 X41.7715 Y37.9140 F120.00
G01 X41.7476 Y37.8738 F120.00
G01 X40.1535 Y37.8738 F120.00
G01 X40.1778 Y37.8336 F120.00
G01 X41.7234 Y37.8336 F120.00
G01 X41.6937 Y37.7934 F120.00
G01 X40.2075 Y37.7934 F120.00
G01 X40.2386 Y37.7532 F120.00
G01 X41.6626 Y37.7532 F120.00
G01 X41.6261 Y37.7130 F120.00
G01 X40.2751 Y37.7130 F120.00
G01 X40.3155 Y37.6728 F120.00
G01 X41.5857 Y37.6728 F120.00
G01 X41.5412 Y37.6326 F120.00
G01 X40.3600 Y37.6326 F120.00
G01 X40.4139 Y37.5924 F120.00
G01 X41.4873 Y37.5924 F120.00
G01 X41.4250 Y37.5522 F120.00
G01 X40.4762 Y37.5522 F120.00
G01 X40.5516 Y37.5120 F120.00
G01 X41.3496 Y37.5120 F120.00
G01 X41.2511 Y37.4718 F120.00
G01 X40.6501 Y37.4718 F120.00
G01 X40.8171 Y37.4316 F120.00
G01 X41.0841 Y37.4316 F120.00
M5
G00 X40.8709 Y35.5492
G01 F60.00
M03 S5000.0
G01 F120.00
G01 X40.7851 Y35.5182 F120.00
G01 X40.7066 Y35.4811 F120.00
G01 X40.7027 Y35.4790 F120.00
G01 X40.6282 Y35.4344 F120.00
G01 X40.6245 Y35.4319 F120.00
G01 X40.5547 Y35.3802 F120.00
G01 X40.5513 Y35.3774 F120.00
G01 X40.4870 Y35.3190 F120.00
G01 X40.4838 Y35.3159 F120.00
G01 X40.4255 Y35.2516 F120.00
G01 X40.3710 Y35.1784 F120.00
G01 X40.3239 Y35.1002 F120.00
G01 X40.2847 Y35.0178 F120.00
G01 X40.2537 Y34.9320 F120.00
G01 X40.2313 Y34.8435 F120.00
G01 X40.2177 Y34.7533 F120.00
G01 X40.2130 Y34.6621 F120.00
G01 X40.2173 Y34.5710 F120.00
G01 X40.2305 Y34.4807 F120.00
G01 X40.2524 Y34.3921 F120.00
G01 X40.2847 Y34.3020 F120.00
G01 X40.3218 Y34.2235 F120.00
G01 X40.3685 Y34.1451 F120.00
G01 X40.4227 Y34.0717 F120.00
G01 X40.4838 Y34.0039 F120.00
G01 X40.5513 Y33.9425 F120.00
G01 X40.6245 Y33.8879 F120.00
G01 X40.7027 Y33.8408 F120.00
G01 X40.7851 Y33.8016 F120.00
G01 X40.8709 Y33.7707 F120.00
G01 X40.9594 Y33.7483 F120.00
G01 X41.0496 Y33.7347 F120.00
G01 X41.1408 Y33.7300 F120.00
G01 X41.2363 Y33.7347 F120.00
G01 X41.3222 Y33.7474 F120.00
G01 X41.4108 Y33.7694 F120.00
G01 X41.4968 Y33.7999 F120.00
G01 X41.5794 Y33.8388 F120.00
G01 X41.6578 Y33.8855 F120.00
G01 X41.7312 Y33.9397 F120.00
G01 X41.7990 Y34.0008 F120.00
G01 X41.8604 Y34.0683 F120.00
G01 X41.9174 Y34.1451 F120.00
G01 X41.9621 Y34.2196 F120.00
G01 X42.0013 Y34.3020 F120.00
G01 X42.0322 Y34.3879 F120.00
G01 X42.0546 Y34.4763 F120.00
G01 X42.0682 Y34.5666 F120.00
G01 X42.0730 Y34.6599 F120.00
G01 X42.0686 Y34.7489 F120.00
G01 X42.0555 Y34.8392 F120.00
G01 X42.0335 Y34.9278 F120.00
G01 X42.0030 Y35.0138 F120.00
G01 X41.9641 Y35.0963 F120.00
G01 X41.9174 Y35.1747 F120.00
G01 X41.8604 Y35.2516 F120.00
G01 X41.8021 Y35.3159 F120.00
G01 X41.7990 Y35.3190 F120.00
G01 X41.7346 Y35.3774 F120.00
G01 X41.7312 Y35.3802 F120.00
G01 X41.6614 Y35.4319 F120.00
G01 X41.6578 Y35.4344 F120.00
G01 X41.5833 Y35.4790 F120.00
G01 X41.5794 Y35.4811 F120.00
G01 X41.5009 Y35.5182 F120.00
G01 X41.4150 Y35.5492 F120.00
G01 X41.4108 Y35.5504 F120.00
G01 X41.3266 Y35.5716 F120.00
G01 X41.2363 Y35.5852 F120.00
G01 X41.1452 Y35.5898 F120.00
G01 X41.0496 Y35.5852 F120.00
G01 X40.9594 Y35.5716 F120.00
G01 X40.8751 Y35.5504 F120.00
G01 X40.8709 Y35.5492 F120.00
G01 X40.8725 Y35.5496 F120.00
G01 X41.4134 Y35.5496 F120.00
G01 X41.5194 Y35.5094 F120.00
G01 X40.7665 Y35.5094 F120.00
G01 X40.6864 Y35.4692 F120.00
G01 X41.5996 Y35.4692 F120.00
G01 X41.6653 Y35.4290 F120.00
G01 X40.6206 Y35.4290 F120.00
G01 X40.5664 Y35.3888 F120.00
G01 X41.7195 Y35.3888 F120.00
G01 X41.7663 Y35.3486 F120.00
G01 X40.5196 Y35.3486 F120.00
G01 X40.4771 Y35.3084 F120.00
G01 X41.8089 Y35.3084 F120.00
G01 X41.8453 Y35.2682 F120.00
G01 X40.4406 Y35.2682 F120.00
M5
G00 X40.4078 Y35.2280
G01 F60.00
M03 S5000.0
G01 F120.00
G01 X41.8781 Y35.2280 F120.00
G01 X41.9079 Y35.1878 F120.00
G01 X40.3780 Y35.1878 F120.00
G01 X40.3523 Y35.1476 F120.00
G01 X41.9336 Y35.1476 F120.00
G01 X41.9577 Y35.1074 F120.00
G01 X40.3282 Y35.1074 F120.00
G01 X40.3080 Y35.0672 F120.00
G01 X41.9779 Y35.0672 F120.00
G01 X41.9969 Y35.0270 F120.00
G01 X40.2890 Y35.0270 F120.00
G01 X40.2734 Y34.9868 F120.00
G01 X42.0126 Y34.9868 F120.00
G01 X42.0270 Y34.9466 F120.00
G01 X40.2590 Y34.9466 F120.00
G01 X40.2471 Y34.9064 F120.00
G01 X42.0388 Y34.9064 F120.00
G01 X42.0489 Y34.8662 F120.00
G01 X40.2370 Y34.8662 F120.00
G01 X40.2285 Y34.8260 F120.00
G01 X42.0574 Y34.8260 F120.00
G01 X42.0634 Y34.7858 F120.00
G01 X40.2226 Y34.7858 F120.00
G01 X40.2171 Y34.7456 F120.00
G01 X42.0688 Y34.7456 F120.00
G01 X42.0708 Y34.7054 F120.00
G01 X40.2152 Y34.7054 F120.00
G01 X40.2132 Y34.6652 F120.00
G01 X42.0727 Y34.6652 F120.00
G01 X42.0713 Y34.6250 F120.00
G01 X40.2146 Y34.6250 F120.00
G01 X40.2166 Y34.5848 F120.00
G01 X42.0693 Y34.5848 F120.00
G01 X42.0649 Y34.5446 F120.00
G01 X40.2210 Y34.5446 F120.00
G01 X40.2270 Y34.5044 F120.00
G01 X42.0590 Y34.5044 F120.00
G01 X42.0516 Y34.4642 F120.00
G01 X40.2344 Y34.4642 F120.00
G01 X40.2444 Y34.4240 F120.00
G01 X42.0415 Y34.4240 F120.00
G01 X42.0308 Y34.3838 F120.00
G01 X40.2552 Y34.3838 F120.00
G01 X40.2695 Y34.3436 F120.00
G01 X42.0164 Y34.3436 F120.00
G01 X42.0019 Y34.3034 F120.00
G01 X40.2841 Y34.3034 F120.00
G01 X40.3030 Y34.2632 F120.00
G01 X41.9829 Y34.2632 F120.00
G01 X41.9639 Y34.2230 F120.00
G01 X40.3220 Y34.2230 F120.00
G01 X40.3459 Y34.1828 F120.00
G01 X41.9400 Y34.1828 F120.00
G01 X41.9158 Y34.1426 F120.00
G01 X40.3702 Y34.1426 F120.00
G01 X40.3999 Y34.1024 F120.00
G01 X41.8860 Y34.1024 F120.00
G01 X41.8550 Y34.0622 F120.00
G01 X40.4310 Y34.0622 F120.00
G01 X40.4674 Y34.0220 F120.00
G01 X41.8185 Y34.0220 F120.00
G01 X41.7781 Y33.9818 F120.00
G01 X40.5079 Y33.9818 F120.00
G01 X40.5523 Y33.9416 F120.00
G01 X41.7336 Y33.9416 F120.00
G01 X41.6797 Y33.9014 F120.00
G01 X40.6063 Y33.9014 F120.00
G01 X40.6686 Y33.8612 F120.00
G01 X41.6173 Y33.8612 F120.00
G01 X41.5419 Y33.8210 F120.00
G01 X40.7440 Y33.8210 F120.00
G01 X40.8425 Y33.7808 F120.00
G01 X41.4435 Y33.7808 F120.00
G01 X41.2765 Y33.7406 F120.00
G01 X41.0094 Y33.7406 F120.00
M5
G00 X42.9115 Y34.6596
G01 F60.00
M03 S5000.0
G01 F120.00
G01 X42.9127 Y34.6852 F120.00
G01 X42.9165 Y34.7124 F120.00
G01 X42.9230 Y34.7391 F120.00
G01 X42.9320 Y34.7650 F120.00
G01 X42.9457 Y34.7938 F120.00
G01 X42.9600 Y34.8173 F120.00
G01 X42.9765 Y34.8392 F120.00
G01 X42.9951 Y34.8594 F120.00
G01 X43.0156 Y34.8777 F120.00
G01 X43.0378 Y34.8939 F120.00
G01 X43.0576 Y34.9058 F120.00
G01 X43.0864 Y34.9194 F120.00
G01 X43.1124 Y34.9284 F120.00
G01 X43.1391 Y34.9349 F120.00
G01 X43.1663 Y34.9387 F120.00
G01 X43.1919 Y34.9399 F120.00
G01 X43.8911 Y34.9399 F120.00
G01 X43.9167 Y34.9387 F120.00
G01 X43.9483 Y34.9340 F120.00
G01 X43.9749 Y34.9272 F120.00
G01 X44.0007 Y34.9177 F120.00
G01 X44.0254 Y34.9058 F120.00
G01 X44.0489 Y34.8914 F120.00
G01 X44.0708 Y34.8749 F120.00
G01 X44.0879 Y34.8594 F120.00
G01 X44.1065 Y34.8392 F120.00
G01 X44.1230 Y34.8173 F120.00
G01 X44.1373 Y34.7938 F120.00
G01 X44.1493 Y34.7691 F120.00
G01 X44.1587 Y34.7433 F120.00
G01 X44.1656 Y34.7167 F120.00
G01 X44.1699 Y34.6896 F120.00
G01 X44.1715 Y34.6596 F120.00
